;FLAVOR:Marlin
;TIME:3677
;Filament used: 2.82131m
;Layer height: 0.2
;MINX:1.343
;MINY:11.989
;MINZ:0.2
;MAXX:46.916
;MAXY:57.467
;MAXZ:21
;Generated with Cura_SteamEngine 5.3.0
M140 S65
M105
M190 S65
M104 S205
M105
M109 S205
M82 ;absolute extrusion mode
; Ender 3 Custom Start G-code
G92 E0 ; Reset Extruder
G28 ; Home all axes
G1 Z2.0 F3000 ; Move Z Axis up little to prevent scratching of Heat Bed
G1 X0.1 Y20 Z0.3 F5000.0 ; Move to start position
G1 X0.1 Y200.0 Z0.3 F1500.0 E15 ; Draw the first line
G1 X0.4 Y200.0 Z0.3 F5000.0 ; Move to side a little
G1 X0.4 Y20 Z0.3 F1500.0 E30 ; Draw the second line
G92 E0 ; Reset Extruder
G1 Z2.0 F3000 ; Move Z Axis up little to prevent scratching of Heat Bed
G1 X5 Y20 Z0.3 F5000.0 ; Move over to prevent blob squish
G92 E0
G92 E0
G1 F2700 E-5
;LAYER_COUNT:105
;LAYER:0
M107
G0 F6000 X11.137 Y15.995 Z0.2
;TYPE:SKIRT
G1 F2700 E0
G1 F1200 X9.568 Y17.187 E0.06554
G1 X7.738 Y18.893 E0.14875
G1 X5.76 Y21.228 E0.25053
G1 X4.81 Y22.627 E0.30678
G1 X3.27 Y25.524 E0.4159
G1 X2.653 Y27.073 E0.47136
G1 X1.782 Y30.213 E0.57974
G1 X1.512 Y31.861 E0.63528
G1 X1.343 Y34.483 E0.72267
G1 X1.487 Y37.369 E0.81878
G1 X1.791 Y39.279 E0.8831
G1 X2.638 Y42.34 E0.98874
G1 X3.27 Y43.931 E1.04568
G1 X4.81 Y46.828 E1.1548
G1 X5.76 Y48.227 E1.21105
G1 X7.784 Y50.619 E1.31526
G1 X9.056 Y51.829 E1.37365
G1 X11.5 Y53.699 E1.47601
G1 X13.552 Y54.923 E1.55548
G1 X15.404 Y55.789 E1.62348
G1 X18.003 Y56.679 E1.71485
G1 X20.803 Y57.284 E1.81012
G1 X22.461 Y57.467 E1.8656
G1 X25.779 Y57.467 E1.97596
G1 X27.394 Y57.291 E2.02999
G1 X30.06 Y56.727 E2.12063
G1 X32.914 Y55.765 E2.2208
G1 X34.562 Y54.999 E2.28124
G1 X37.121 Y53.46 E2.38056
G1 X38.69 Y52.268 E2.4461
G1 X40.52 Y50.562 E2.52931
G1 X42.498 Y48.227 E2.6311
G1 X43.448 Y46.828 E2.68734
G1 X44.988 Y43.931 E2.79646
G1 X45.605 Y42.382 E2.85192
G1 X46.476 Y39.242 E2.9603
G1 X46.746 Y37.594 E3.01584
G1 X46.916 Y34.927 E3.10473
G1 X46.776 Y32.129 E3.19791
G1 X46.458 Y30.134 E3.2651
G1 X45.634 Y27.156 E3.36787
G1 X44.987 Y25.522 E3.42632
G1 X43.447 Y22.624 E3.53547
G1 X42.523 Y21.262 E3.59021
G1 X40.472 Y18.836 E3.69587
G1 X39.2 Y17.626 E3.75427
G1 X36.758 Y15.756 E3.85657
G1 X34.704 Y14.531 E3.93611
G1 X32.854 Y13.666 E4.00403
G1 X30.255 Y12.776 E4.09541
G1 X27.455 Y12.171 E4.19068
G1 X25.797 Y11.989 E4.24616
G1 X22.479 Y11.989 E4.35652
G1 X20.864 Y12.164 E4.41055
G1 X18.198 Y12.728 E4.50118
G1 X15.344 Y13.69 E4.60135
G1 X13.696 Y14.456 E4.6618
G1 X11.137 Y15.995 E4.76112
G0 F6000 X11.379 Y16.314
G1 F1200 X9.81 Y17.506 E4.82665
G1 X8.011 Y19.185 E4.9085
G1 X6.091 Y21.453 E5.00733
G1 X5.141 Y22.852 E5.06358
G1 X3.642 Y25.672 E5.1698
G1 X3.025 Y27.221 E5.22526
G1 X2.177 Y30.278 E5.33077
G1 X1.907 Y31.926 E5.38632
G1 X1.743 Y34.463 E5.47087
G1 X1.887 Y37.349 E5.56698
G1 X2.177 Y39.172 E5.62838
G1 X3.024 Y42.233 E5.73401
G1 X3.642 Y43.783 E5.78951
G1 X5.141 Y46.603 E5.89573
G1 X6.091 Y48.002 E5.95198
G1 X8.06 Y50.329 E6.05336
G1 X9.332 Y51.539 E6.11175
G1 X11.705 Y53.355 E6.21114
G1 X13.757 Y54.579 E6.29061
G1 X15.573 Y55.426 E6.35726
G1 X18.132 Y56.3 E6.4472
G1 X20.847 Y56.886 E6.53958
G1 X22.505 Y57.069 E6.59506
G1 X25.736 Y57.069 E6.70252
G1 X27.351 Y56.893 E6.75655
G1 X29.932 Y56.348 E6.84429
G1 X32.745 Y55.402 E6.943
G1 X34.393 Y54.636 E7.00345
G1 X36.879 Y53.141 E7.09993
G1 X38.448 Y51.949 E7.16547
G1 X40.247 Y50.27 E7.24731
G1 X42.167 Y48.002 E7.34615
G1 X43.117 Y46.603 E7.40239
G1 X44.616 Y43.783 E7.50861
G1 X45.233 Y42.234 E7.56407
G1 X46.081 Y39.177 E7.66959
G1 X46.351 Y37.529 E7.72513
G1 X46.516 Y34.947 E7.81118
G1 X46.376 Y32.149 E7.90436
G1 X46.072 Y30.241 E7.96862
G1 X45.248 Y27.263 E8.07139
G1 X44.615 Y25.67 E8.1284
G1 X43.116 Y22.849 E8.23466
G1 X42.192 Y21.487 E8.2894
G1 X40.196 Y19.126 E8.39223
G1 X38.924 Y17.916 E8.45062
G1 X36.553 Y16.1 E8.54995
G1 X34.499 Y14.875 E8.62949
G1 X32.685 Y14.029 E8.69607
G1 X30.126 Y13.155 E8.78601
G1 X27.411 Y12.569 E8.87839
G1 X25.753 Y12.387 E8.93386
G1 X22.522 Y12.387 E9.04133
G1 X20.907 Y12.562 E9.09536
G1 X18.326 Y13.107 E9.18309
G1 X15.513 Y14.053 E9.2818
G1 X13.865 Y14.819 E9.34225
G1 X11.379 Y16.314 E9.43873
G0 F6000 X11.621 Y16.633
G1 F1200 X10.052 Y17.825 E9.50427
G1 X8.284 Y19.477 E9.58475
G1 X6.422 Y21.678 E9.68064
G1 X5.472 Y23.077 E9.73688
G1 X4.014 Y25.82 E9.8402
G1 X3.397 Y27.369 E9.89566
G1 X2.572 Y30.343 E9.99831
G1 X2.302 Y31.991 E10.05385
G1 X2.143 Y34.443 E10.13558
G1 X2.287 Y37.329 E10.23169
G1 X2.572 Y39.109 E10.29164
G1 X3.396 Y42.085 E10.39435
G1 X4.014 Y43.635 E10.44985
G1 X5.472 Y46.378 E10.55317
G1 X6.422 Y47.777 E10.60941
G1 X8.336 Y50.039 E10.70797
G1 X9.608 Y51.249 E10.76636
G1 X11.91 Y53.011 E10.86278
G1 X13.962 Y54.235 E10.94225
G1 X15.702 Y55.047 E11.00611
G1 X18.261 Y55.921 E11.09605
G1 X20.891 Y56.488 E11.18553
G1 X22.549 Y56.671 E11.24101
G1 X25.693 Y56.671 E11.34558
G1 X27.308 Y56.495 E11.39962
G1 X29.805 Y55.969 E11.48449
G1 X32.576 Y55.039 E11.58171
G1 X34.224 Y54.273 E11.64215
G1 X36.637 Y52.822 E11.7358
G1 X38.206 Y51.63 E11.80134
G1 X39.974 Y49.978 E11.88182
G1 X41.836 Y47.777 E11.9777
G1 X42.786 Y46.378 E12.03395
G1 X44.244 Y43.635 E12.13727
G1 X44.861 Y42.086 E12.19273
G1 X45.686 Y39.112 E12.29538
G1 X45.956 Y37.464 E12.35092
G1 X46.116 Y34.967 E12.43414
G1 X45.976 Y32.169 E12.52732
G1 X45.686 Y30.348 E12.58865
G1 X44.862 Y27.37 E12.69142
G1 X44.243 Y25.818 E12.74699
G1 X42.785 Y23.074 E12.85034
G1 X41.861 Y21.712 E12.90508
G1 X39.92 Y19.416 E13.00508
G1 X38.648 Y18.206 E13.06347
G1 X36.348 Y16.444 E13.15984
G1 X34.294 Y15.219 E13.23938
G1 X32.556 Y14.408 E13.30317
G1 X29.997 Y13.534 E13.39311
G1 X27.367 Y12.967 E13.4826
G1 X25.709 Y12.785 E13.53807
G1 X22.565 Y12.785 E13.64264
G1 X20.95 Y12.96 E13.69667
G1 X18.453 Y13.486 E13.78154
G1 X15.682 Y14.416 E13.87876
G1 X14.034 Y15.182 E13.93921
G1 X11.621 Y16.633 E14.03285
G0 F6000 X11.863 Y16.952
G1 F1200 X10.294 Y18.144 E14.09839
G1 X8.589 Y19.736 E14.17598
G1 X6.753 Y21.903 E14.27044
G1 X5.803 Y23.302 E14.32669
G1 X4.386 Y25.968 E14.42711
G1 X3.769 Y27.517 E14.48256
G1 X2.967 Y30.408 E14.58235
G1 X2.697 Y32.056 E14.63789
G1 X2.543 Y34.423 E14.71679
G1 X2.687 Y37.309 E14.81289
G1 X2.967 Y39.045 E14.87138
G1 X3.768 Y41.937 E14.97119
G1 X4.386 Y43.487 E15.02669
G1 X5.803 Y46.153 E15.12711
G1 X6.753 Y47.552 E15.18335
G1 X8.612 Y49.749 E15.27907
G1 X9.884 Y50.959 E15.33747
G1 X12.115 Y52.667 E15.43092
G1 X14.167 Y53.891 E15.51039
G1 X15.831 Y54.668 E15.57147
G1 X18.39 Y55.542 E15.66141
G1 X20.935 Y56.09 E15.748
G1 X22.593 Y56.273 E15.80348
G1 X25.65 Y56.273 E15.90515
G1 X27.265 Y56.097 E15.95919
G1 X29.722 Y55.578 E16.04271
G1 X32.407 Y54.676 E16.13692
G1 X34.055 Y53.91 E16.19736
G1 X36.395 Y52.503 E16.28818
G1 X37.964 Y51.311 E16.35371
G1 X39.669 Y49.719 E16.4313
G1 X41.505 Y47.552 E16.52576
G1 X42.455 Y46.153 E16.58201
G1 X43.872 Y43.487 E16.68243
G1 X44.489 Y41.938 E16.73788
G1 X45.291 Y39.047 E16.83767
G1 X45.561 Y37.399 E16.89321
G1 X45.716 Y34.987 E16.9736
G1 X45.576 Y32.189 E17.06678
G1 X45.291 Y30.411 E17.12667
G1 X44.49 Y27.518 E17.22651
G1 X43.871 Y25.966 E17.28209
G1 X42.454 Y23.299 E17.38254
G1 X41.53 Y21.937 E17.43728
G1 X39.644 Y19.706 E17.53444
G1 X38.372 Y18.496 E17.59283
G1 X36.143 Y16.788 E17.68623
G1 X34.089 Y15.563 E17.76578
G1 X32.427 Y14.787 E17.82678
G1 X29.868 Y13.913 E17.91672
G1 X27.323 Y13.365 E18.00331
G1 X25.665 Y13.183 E18.05879
G1 X22.608 Y13.183 E18.16046
G1 X20.993 Y13.358 E18.21449
G1 X18.536 Y13.877 E18.29802
G1 X15.851 Y14.779 E18.39222
G1 X14.203 Y15.545 E18.45267
G1 X11.863 Y16.952 E18.54348
G0 F6000 X12.105 Y17.271
G1 F1200 X10.536 Y18.463 E18.60902
G1 X8.862 Y20.028 E18.68524
G1 X7.084 Y22.128 E18.77676
G1 X6.134 Y23.527 E18.833
G1 X4.758 Y26.116 E18.93052
G1 X4.141 Y27.665 E18.98598
G1 X3.362 Y30.473 E19.0829
G1 X3.092 Y32.121 E19.13844
G1 X2.943 Y34.403 E19.2145
G1 X3.087 Y37.289 E19.31061
G1 X3.362 Y38.981 E19.36763
G1 X4.14 Y41.789 E19.46454
G1 X4.758 Y43.339 E19.52004
G1 X6.134 Y45.928 E19.61755
G1 X7.084 Y47.327 E19.6738
G1 X8.888 Y49.459 E19.76669
G1 X10.16 Y50.669 E19.82508
G1 X12.32 Y52.323 E19.91557
G1 X14.372 Y53.547 E19.99504
G1 X16 Y54.305 E20.05476
G1 X18.474 Y55.151 E20.14173
G1 X20.979 Y55.692 E20.22697
G1 X22.637 Y55.875 E20.28245
G1 X25.607 Y55.875 E20.38123
G1 X27.222 Y55.699 E20.43526
G1 X29.595 Y55.199 E20.51592
G1 X32.238 Y54.313 E20.60863
G1 X33.886 Y53.547 E20.66908
G1 X36.153 Y52.184 E20.75706
G1 X37.722 Y50.992 E20.8226
G1 X39.396 Y49.427 E20.89882
G1 X41.174 Y47.327 E20.99033
G1 X42.124 Y45.928 E21.04658
G1 X43.5 Y43.339 E21.1441
G1 X44.117 Y41.79 E21.19955
G1 X44.896 Y38.982 E21.29647
G1 X45.166 Y37.334 E21.35202
G1 X45.316 Y35.007 E21.42957
G1 X45.176 Y32.209 E21.52275
G1 X44.896 Y30.475 E21.58117
G1 X44.118 Y27.666 E21.67812
G1 X43.499 Y26.114 E21.73369
G1 X42.123 Y23.524 E21.83124
G1 X41.199 Y22.162 E21.88598
G1 X39.368 Y19.996 E21.98031
G1 X38.096 Y18.786 E22.0387
G1 X35.938 Y17.132 E22.12914
G1 X33.884 Y15.907 E22.20868
G1 X32.258 Y15.15 E22.26833
G1 X29.784 Y14.304 E22.3553
G1 X27.279 Y13.763 E22.44054
G1 X25.621 Y13.581 E22.49601
G1 X22.651 Y13.581 E22.59479
G1 X21.036 Y13.756 E22.64882
G1 X18.663 Y14.256 E22.72948
G1 X16.02 Y15.142 E22.8222
G1 X14.372 Y15.908 E22.88264
G1 X12.105 Y17.271 E22.97062
G0 F6000 X12.347 Y17.59
G1 F1200 X10.778 Y18.782 E23.03616
G1 X9.135 Y20.32 E23.11101
G1 X7.415 Y22.353 E23.19958
G1 X6.465 Y23.752 E23.25583
G1 X5.13 Y26.264 E23.35044
G1 X4.513 Y27.813 E23.4059
G1 X3.757 Y30.538 E23.49996
G1 X3.487 Y32.186 E23.5555
G1 X3.343 Y34.383 E23.62873
G1 X3.487 Y37.269 E23.72484
G1 X3.757 Y38.916 E23.78035
G1 X4.512 Y41.641 E23.8744
G1 X5.13 Y43.191 E23.9299
G1 X6.465 Y45.703 E24.02451
G1 X7.415 Y47.102 E24.08076
G1 X9.164 Y49.169 E24.17081
G1 X10.436 Y50.379 E24.22921
G1 X12.525 Y51.98 E24.31674
G1 X14.541 Y53.184 E24.39484
G1 X16.169 Y53.942 E24.45457
G1 X18.603 Y54.772 E24.54011
G1 X21.023 Y55.294 E24.62245
G1 X22.681 Y55.477 E24.67793
G1 X25.564 Y55.477 E24.77382
G1 X27.179 Y55.301 E24.82785
G1 X29.512 Y54.808 E24.90716
G1 X32.069 Y53.95 E24.99687
G1 X33.717 Y53.184 E25.05731
G1 X35.911 Y51.865 E25.14245
G1 X37.48 Y50.673 E25.20799
G1 X39.123 Y49.135 E25.28284
G1 X40.843 Y47.102 E25.37142
G1 X41.793 Y45.703 E25.42766
G1 X43.128 Y43.191 E25.52228
G1 X43.745 Y41.642 E25.57773
G1 X44.501 Y38.917 E25.67179
G1 X44.771 Y37.269 E25.72733
G1 X44.916 Y35.027 E25.80206
G1 X44.776 Y32.229 E25.89524
G1 X44.501 Y30.539 E25.95219
G1 X43.746 Y27.814 E26.04623
G1 X43.127 Y26.262 E26.10181
G1 X41.792 Y23.749 E26.19645
G1 X40.868 Y22.387 E26.25119
G1 X39.092 Y20.286 E26.34269
G1 X37.82 Y19.076 E26.40109
G1 X35.733 Y17.475 E26.48857
G1 X33.715 Y16.27 E26.56675
G1 X32.089 Y15.513 E26.6264
G1 X29.655 Y14.683 E26.71193
G1 X27.235 Y14.161 E26.79427
G1 X25.577 Y13.979 E26.84975
G1 X22.694 Y13.979 E26.94564
G1 X21.079 Y14.154 E26.99967
G1 X18.746 Y14.647 E27.07898
G1 X16.189 Y15.505 E27.16868
G1 X14.541 Y16.271 E27.22913
G1 X12.347 Y17.59 E27.31427
G0 F6000 X12.589 Y17.909
G1 F1200 X11.02 Y19.101 E27.37981
G1 X9.44 Y20.579 E27.45177
G1 X7.746 Y22.578 E27.53892
G1 X6.796 Y23.977 E27.59516
G1 X5.502 Y26.412 E27.68688
G1 X4.885 Y27.961 E27.74234
G1 X4.152 Y30.603 E27.83353
G1 X3.882 Y32.251 E27.88907
G1 X3.742 Y34.409 E27.961
G1 X3.882 Y37.204 E28.05408
G1 X4.152 Y38.851 E28.10959
G1 X4.884 Y41.493 E28.20077
G1 X5.502 Y43.043 E28.25627
G1 X6.796 Y45.478 E28.34798
G1 X7.746 Y46.877 E28.40423
G1 X9.44 Y48.879 E28.49145
G1 X10.712 Y50.089 E28.54985
G1 X12.73 Y51.637 E28.63444
G1 X14.71 Y52.821 E28.71117
G1 X16.338 Y53.579 E28.7709
G1 X18.732 Y54.393 E28.855
G1 X21.067 Y54.896 E28.93444
G1 X22.725 Y55.079 E28.98992
G1 X25.521 Y55.079 E29.08292
G1 X27.136 Y54.903 E29.13695
G1 X29.385 Y54.429 E29.2134
G1 X31.9 Y53.587 E29.30161
G1 X33.548 Y52.821 E29.36205
G1 X35.669 Y51.546 E29.44436
G1 X37.238 Y50.354 E29.5099
G1 X38.818 Y48.876 E29.58186
G1 X40.512 Y46.877 E29.66901
G1 X41.462 Y45.478 E29.72526
G1 X42.756 Y43.043 E29.81697
G1 X43.373 Y41.494 E29.87243
G1 X44.106 Y38.852 E29.96362
G1 X44.376 Y37.204 E30.01916
G1 X44.516 Y35.047 E30.09106
G1 X44.376 Y32.249 E30.18423
G1 X44.106 Y30.604 E30.23968
G1 X43.374 Y27.962 E30.33086
G1 X42.755 Y26.41 E30.38644
G1 X41.461 Y23.974 E30.47818
G1 X40.537 Y22.612 E30.53292
G1 X38.816 Y20.576 E30.62159
G1 X37.544 Y19.366 E30.67998
G1 X35.49 Y17.793 E30.76603
G1 X33.546 Y16.633 E30.84132
G1 X31.92 Y15.876 E30.90098
G1 X29.526 Y15.062 E30.98508
G1 X27.191 Y14.559 E31.06452
G1 X25.533 Y14.377 E31.12
G1 X22.737 Y14.377 E31.21299
G1 X21.122 Y14.552 E31.26702
G1 X18.873 Y15.026 E31.34347
G1 X16.358 Y15.868 E31.43168
G1 X14.71 Y16.634 E31.49213
G1 X12.589 Y17.909 E31.57444
G0 F6000 X12.831 Y18.228
G1 F1200 X11.262 Y19.42 E31.63997
G1 X9.714 Y20.871 E31.71054
G1 X8.077 Y22.803 E31.79477
G1 X7.127 Y24.202 E31.85101
G1 X5.874 Y26.56 E31.93982
G1 X5.257 Y28.109 E31.99528
G1 X4.547 Y30.668 E32.08361
G1 X4.277 Y32.316 E32.13915
G1 X4.141 Y34.435 E32.20977
G1 X4.277 Y37.139 E32.29982
G1 X4.547 Y38.786 E32.35533
G1 X5.256 Y41.345 E32.44365
G1 X5.874 Y42.895 E32.49915
G1 X7.127 Y45.253 E32.58797
G1 X8.077 Y46.652 E32.64421
G1 X9.716 Y48.589 E32.7286
G1 X10.988 Y49.799 E32.787
G1 X12.936 Y51.294 E32.86867
G1 X14.879 Y52.458 E32.944
G1 X16.507 Y53.216 E33.00373
G1 X18.86 Y54.014 E33.08637
G1 X21.111 Y54.498 E33.16295
G1 X22.769 Y54.681 E33.21843
G1 X25.478 Y54.681 E33.30853
G1 X27.093 Y54.505 E33.36256
G1 X29.258 Y54.05 E33.43615
G1 X31.731 Y53.224 E33.52286
G1 X33.379 Y52.458 E33.58331
G1 X35.427 Y51.227 E33.66278
G1 X36.996 Y50.035 E33.72832
G1 X38.544 Y48.584 E33.79889
G1 X40.181 Y46.652 E33.88311
G1 X41.131 Y45.253 E33.93936
G1 X42.384 Y42.895 E34.02817
G1 X43.001 Y41.346 E34.08363
G1 X43.711 Y38.787 E34.17196
G1 X43.981 Y37.139 E34.2275
G1 X44.117 Y35.021 E34.29809
G1 X43.981 Y32.314 E34.38824
G1 X43.711 Y30.669 E34.44368
G1 X43.002 Y28.11 E34.532
G1 X42.383 Y26.558 E34.58758
G1 X41.13 Y24.199 E34.67642
G1 X40.206 Y22.837 E34.73116
G1 X38.54 Y20.866 E34.817
G1 X37.268 Y19.656 E34.87539
G1 X35.285 Y18.136 E34.95849
G1 X33.377 Y16.996 E35.03241
G1 X31.751 Y16.239 E35.09207
G1 X29.398 Y15.441 E35.17471
G1 X27.147 Y14.957 E35.25129
G1 X25.489 Y14.775 E35.30676
G1 X22.78 Y14.775 E35.39686
G1 X21.165 Y14.95 E35.45089
G1 X19 Y15.405 E35.52448
G1 X16.527 Y16.231 E35.61119
G1 X14.879 Y16.997 E35.67164
G1 X12.831 Y18.228 E35.75111
G0 F6000 X13.073 Y18.547
G1 F1200 X11.504 Y19.739 E35.81665
G1 X9.988 Y21.163 E35.88583
G1 X8.408 Y23.028 E35.96713
G1 X7.458 Y24.427 E36.02337
G1 X6.246 Y26.708 E36.10928
G1 X5.629 Y28.257 E36.16474
G1 X4.942 Y30.733 E36.2502
G1 X4.672 Y32.381 E36.30575
G1 X4.54 Y34.46 E36.37503
G1 X4.672 Y37.074 E36.46209
G1 X4.942 Y38.721 E36.5176
G1 X5.628 Y41.197 E36.60305
G1 X6.246 Y42.747 E36.65855
G1 X7.458 Y45.028 E36.74446
G1 X8.408 Y46.427 E36.80071
G1 X9.992 Y48.299 E36.88227
G1 X11.264 Y49.509 E36.94066
G1 X13.179 Y50.976 E37.02089
G1 X15.048 Y52.095 E37.09335
G1 X16.676 Y52.853 E37.15308
G1 X18.988 Y53.635 E37.23425
G1 X21.155 Y54.1 E37.30797
G1 X22.813 Y54.283 E37.36345
G1 X25.435 Y54.283 E37.45066
G1 X27.05 Y54.107 E37.50469
G1 X29.175 Y53.659 E37.57692
G1 X31.562 Y52.861 E37.66063
G1 X33.21 Y52.095 E37.72108
G1 X35.185 Y50.908 E37.79772
G1 X36.754 Y49.716 E37.86325
G1 X38.27 Y48.292 E37.93243
G1 X39.85 Y46.427 E38.01373
G1 X40.8 Y45.028 E38.06997
G1 X42.012 Y42.747 E38.15589
G1 X42.629 Y41.198 E38.21134
G1 X43.316 Y38.722 E38.29681
G1 X43.586 Y37.074 E38.35235
G1 X43.718 Y34.996 E38.4216
G1 X43.586 Y32.379 E38.50876
G1 X43.316 Y30.734 E38.5642
G1 X42.63 Y28.258 E38.64966
G1 X42.011 Y26.706 E38.70523
G1 X40.799 Y24.424 E38.79117
G1 X39.875 Y23.062 E38.84591
G1 X38.264 Y21.156 E38.92892
G1 X36.992 Y19.946 E38.98731
G1 X35.08 Y18.479 E39.06746
G1 X33.208 Y17.359 E39.14002
G1 X31.582 Y16.602 E39.19967
G1 X29.27 Y15.82 E39.28085
G1 X27.103 Y15.355 E39.35456
G1 X25.445 Y15.173 E39.41004
G1 X22.823 Y15.173 E39.49725
G1 X21.208 Y15.348 E39.55128
G1 X19.083 Y15.796 E39.62351
G1 X16.696 Y16.594 E39.70722
G1 X15.048 Y17.36 E39.76767
G1 X13.073 Y18.547 E39.84431
G0 F6000 X13.315 Y18.866
G1 F1200 X11.746 Y20.058 E39.90984
G1 X10.262 Y21.454 E39.97761
G1 X8.739 Y23.253 E40.056
G1 X7.789 Y24.652 E40.11225
