;FLAVOR:Marlin
;TIME:6599
;Filament used: 5.54271m
;Layer height: 0.2
;MINX:3.947
;MINY:11.576
;MINZ:0.2
;MAXX:61.467
;MAXY:97.176
;MAXZ:21
;Generated with Cura_SteamEngine 5.3.0
M140 S65
M105
M190 S65
M104 S205
M105
M109 S205
M82 ;absolute extrusion mode
; Ender 3 Custom Start G-code
G92 E0 ; Reset Extruder
G28 ; Home all axes
G1 Z2.0 F3000 ; Move Z Axis up little to prevent scratching of Heat Bed
G1 X0.1 Y20 Z0.3 F5000.0 ; Move to start position
G1 X0.1 Y200.0 Z0.3 F1500.0 E15 ; Draw the first line
G1 X0.4 Y200.0 Z0.3 F5000.0 ; Move to side a little
G1 X0.4 Y20 Z0.3 F1500.0 E30 ; Draw the second line
G92 E0 ; Reset Extruder
G1 Z2.0 F3000 ; Move Z Axis up little to prevent scratching of Heat Bed
G1 X5 Y20 Z0.3 F5000.0 ; Move over to prevent blob squish
G92 E0
G92 E0
G1 F2700 E-5
;LAYER_COUNT:105
;LAYER:0
M107
G0 F6000 X20.426 Y14.6 Z0.2
;TYPE:SKIRT
G1 F2700 E0
G1 F1200 X22.001 Y13.126 E0.07175
G1 X23.873 Y12.014 E0.14417
G1 X26.06 Y11.576 E0.21835
G1 X39.56 Y11.576 E0.66736
G1 X41.456 Y12.042 E0.7323
G1 X43.483 Y13.095 E0.80827
G1 X44.957 Y14.67 E0.88002
G1 X46.069 Y16.542 E0.95244
G1 X46.507 Y18.729 E1.02662
G1 X46.507 Y29.138 E1.37283
G1 X47.071 Y29.427 E1.39391
G1 X50.622 Y31.828 E1.53648
G1 X52.587 Y33.541 E1.62318
G1 X55.339 Y36.578 E1.7595
G1 X57.04 Y38.987 E1.85758
G1 X59.112 Y42.889 E2.00452
G1 X60.087 Y45.459 E2.09595
G1 X60.981 Y48.975 E2.21661
G1 X61.467 Y53.087 E2.35433
G1 X61.461 Y55.794 E2.44436
G1 X61.008 Y59.634 E2.57297
G1 X60.027 Y63.464 E2.70447
G1 X58.945 Y66.231 E2.80328
G1 X57.029 Y69.799 E2.93798
G1 X55.506 Y71.973 E3.02627
G1 X52.623 Y75.175 E3.16958
G1 X50.544 Y76.983 E3.26121
G1 X47.121 Y79.294 E3.39858
G1 X46.507 Y79.613 E3.42159
G1 X46.507 Y90.229 E3.77468
G1 X46.041 Y92.125 E3.83962
G1 X44.988 Y94.152 E3.91559
G1 X43.413 Y95.626 E3.98734
G1 X41.541 Y96.738 E4.05976
G1 X39.354 Y97.176 E4.13395
G1 X25.854 Y97.176 E4.58296
G1 X23.958 Y96.71 E4.6479
G1 X21.931 Y95.657 E4.72387
G1 X20.457 Y94.082 E4.79561
G1 X19.345 Y92.21 E4.86803
G1 X18.907 Y90.023 E4.94222
G1 X18.907 Y79.613 E5.28846
G1 X18.293 Y79.294 E5.31147
G1 X14.87 Y76.983 E5.44884
G1 X12.79 Y75.175 E5.5405
G1 X9.908 Y71.973 E5.68378
G1 X8.385 Y69.799 E5.77207
G1 X6.299 Y65.859 E5.92035
G1 X5.327 Y63.294 E6.01158
G1 X4.433 Y59.78 E6.13218
G1 X3.947 Y55.664 E6.27003
G1 X3.953 Y52.957 E6.36007
G1 X4.436 Y48.908 E6.49569
G1 X5.102 Y46.188 E6.58883
G1 X6.708 Y42.013 E6.73761
G1 X7.96 Y39.668 E6.82603
G1 X10.478 Y36.082 E6.97176
G1 X12.393 Y33.974 E7.06649
G1 X15.416 Y31.348 E7.19967
G1 X17.782 Y29.751 E7.29461
G1 X18.907 Y29.161 E7.33686
G1 X18.907 Y18.523 E7.69069
G1 X19.373 Y16.627 E7.75562
G1 X20.426 Y14.6 E7.8316
G0 F6000 X20.749 Y14.845
G1 F1200 X22.242 Y13.448 E7.8996
G1 X24.019 Y12.392 E7.96835
G1 X26.098 Y11.976 E8.03887
G1 X39.514 Y11.976 E8.48509
G1 X41.313 Y12.418 E8.5467
G1 X43.238 Y13.418 E8.61885
G1 X44.635 Y14.911 E8.68686
G1 X45.691 Y16.688 E8.75561
G1 X46.107 Y18.767 E8.82613
G1 X46.107 Y29.384 E9.17925
G1 X46.847 Y29.758 E9.20683
G1 X50.359 Y32.13 E9.34779
G1 X52.324 Y33.843 E9.43449
G1 X55.012 Y36.809 E9.56762
G1 X56.713 Y39.218 E9.66571
G1 X58.738 Y43.031 E9.8093
G1 X59.699 Y45.558 E9.89923
G1 X60.593 Y49.074 E10.01989
G1 X61.067 Y53.086 E10.15426
G1 X61.061 Y55.793 E10.24429
G1 X60.611 Y59.587 E10.37137
G1 X59.654 Y63.318 E10.49948
G1 X58.572 Y66.085 E10.59829
G1 X56.701 Y69.569 E10.72982
G1 X55.178 Y71.743 E10.81811
G1 X52.326 Y74.907 E10.95979
G1 X50.32 Y76.651 E11.0482
G1 X46.897 Y78.962 E11.18556
G1 X46.107 Y79.369 E11.21512
G1 X46.107 Y90.183 E11.5748
G1 X45.665 Y91.982 E11.63641
G1 X44.665 Y93.907 E11.70856
G1 X43.172 Y95.304 E11.77657
G1 X41.395 Y96.36 E11.84532
G1 X39.316 Y96.776 E11.91584
G1 X25.9 Y96.776 E12.36205
G1 X24.101 Y96.334 E12.42367
G1 X22.176 Y95.334 E12.49582
G1 X20.779 Y93.841 E12.56382
G1 X19.723 Y92.064 E12.63258
G1 X19.307 Y89.985 E12.70309
G1 X19.307 Y79.369 E13.05618
G1 X18.517 Y78.962 E13.08574
G1 X15.094 Y76.651 E13.22311
G1 X13.087 Y74.907 E13.31154
G1 X10.236 Y71.743 E13.4532
G1 X8.713 Y69.569 E13.54148
G1 X6.673 Y65.717 E13.68646
G1 X5.715 Y63.195 E13.77619
G1 X4.821 Y59.681 E13.89679
G1 X4.347 Y55.665 E14.03129
G1 X4.353 Y52.958 E14.12132
G1 X4.825 Y49.003 E14.2538
G1 X5.491 Y46.283 E14.34694
G1 X7.061 Y42.201 E14.4924
G1 X8.313 Y39.856 E14.58082
G1 X10.774 Y36.351 E14.72326
G1 X12.689 Y34.243 E14.81799
G1 X15.64 Y31.68 E14.94799
G1 X18.006 Y30.083 E15.04293
G1 X19.307 Y29.404 E15.09174
G1 X19.307 Y18.569 E15.45211
G1 X19.749 Y16.77 E15.51373
G1 X20.749 Y14.845 E15.58588
G0 F6000 X21.072 Y15.09
G1 F1200 X22.483 Y13.77 E15.65014
G1 X24.165 Y12.771 E15.71521
G1 X26.137 Y12.376 E15.7821
G1 X39.467 Y12.376 E16.22546
G1 X41.171 Y12.795 E16.28382
G1 X42.993 Y13.741 E16.3521
G1 X44.313 Y15.152 E16.41637
G1 X45.312 Y16.834 E16.48144
G1 X45.707 Y18.806 E16.54833
G1 X45.707 Y29.63 E16.90833
G1 X46.666 Y30.115 E16.94408
G1 X50.096 Y32.432 E17.08175
G1 X52.061 Y34.145 E17.16845
G1 X54.685 Y37.04 E17.29841
G1 X56.386 Y39.449 E17.39649
G1 X58.364 Y43.174 E17.53677
G1 X59.311 Y45.657 E17.62516
G1 X60.205 Y49.173 E17.74582
G1 X60.667 Y53.085 E17.87684
G1 X60.661 Y55.792 E17.96688
G1 X60.223 Y59.488 E18.09067
G1 X59.281 Y63.172 E18.21714
G1 X58.199 Y65.939 E18.31595
G1 X56.373 Y69.339 E18.44432
G1 X54.85 Y71.513 E18.5326
G1 X52.063 Y74.605 E18.67105
G1 X50.096 Y76.319 E18.75783
G1 X46.673 Y78.63 E18.8952
G1 X45.707 Y79.124 E18.93128
G1 X45.707 Y90.136 E19.29754
G1 X45.288 Y91.84 E19.35591
G1 X44.342 Y93.662 E19.42419
G1 X42.931 Y94.982 E19.48845
G1 X41.249 Y95.981 E19.55352
G1 X39.277 Y96.376 E19.62041
G1 X25.947 Y96.376 E20.06377
G1 X24.243 Y95.957 E20.12213
G1 X22.421 Y95.011 E20.19041
G1 X21.101 Y93.6 E20.25468
G1 X20.102 Y91.918 E20.31974
G1 X19.707 Y89.946 E20.38664
G1 X19.707 Y79.124 E20.74658
G1 X18.741 Y78.63 E20.78266
G1 X15.318 Y76.319 E20.92003
G1 X13.35 Y74.605 E21.00683
G1 X10.564 Y71.513 E21.14526
G1 X9.041 Y69.339 E21.23355
G1 X7.047 Y65.575 E21.37522
G1 X6.103 Y63.096 E21.46345
G1 X5.209 Y59.582 E21.58405
G1 X4.747 Y55.666 E21.7152
G1 X4.753 Y52.959 E21.80523
G1 X5.214 Y49.098 E21.93456
G1 X5.88 Y46.378 E22.0277
G1 X7.414 Y42.389 E22.16985
G1 X8.666 Y40.044 E22.25826
G1 X11.07 Y36.62 E22.39741
G1 X12.952 Y34.545 E22.49059
G1 X15.864 Y32.012 E22.61895
G1 X18.23 Y30.415 E22.7139
G1 X19.707 Y29.647 E22.76927
G1 X19.707 Y18.616 E23.13616
G1 X20.126 Y16.912 E23.19452
G1 X21.072 Y15.09 E23.2628
G0 F6000 X21.395 Y15.335
G1 F1200 X22.724 Y14.092 E23.32333
G1 X24.311 Y13.149 E23.38473
G1 X26.175 Y12.776 E23.44795
G1 X39.421 Y12.776 E23.88852
G1 X41.028 Y13.171 E23.94356
G1 X42.748 Y14.064 E24.00801
G1 X43.991 Y15.393 E24.06854
G1 X44.934 Y16.98 E24.12994
G1 X45.307 Y18.844 E24.19316
G1 X45.307 Y29.876 E24.56009
G1 X46.485 Y30.472 E24.604
G1 X49.833 Y32.734 E24.73839
G1 X51.798 Y34.447 E24.82509
G1 X54.358 Y37.271 E24.95186
G1 X56.059 Y39.68 E25.04995
G1 X57.99 Y43.317 E25.18691
G1 X58.923 Y45.756 E25.27376
G1 X59.817 Y49.272 E25.39443
G1 X60.267 Y53.084 E25.52209
G1 X60.261 Y55.791 E25.61213
G1 X59.826 Y59.441 E25.73439
G1 X58.908 Y63.026 E25.85747
G1 X57.826 Y65.793 E25.95629
G1 X56.045 Y69.109 E26.08148
G1 X54.522 Y71.283 E26.16977
G1 X51.8 Y74.303 E26.30499
G1 X49.833 Y76.017 E26.39177
G1 X46.491 Y78.274 E26.5259
G1 X45.307 Y78.88 E26.57014
G1 X45.307 Y90.09 E26.94298
G1 X44.912 Y91.697 E26.99802
G1 X44.019 Y93.417 E27.06248
G1 X42.69 Y94.66 E27.123
G1 X41.103 Y95.603 E27.1844
G1 X39.239 Y95.976 E27.24763
G1 X25.993 Y95.976 E27.68819
G1 X24.386 Y95.581 E27.74323
G1 X22.666 Y94.688 E27.80769
G1 X21.423 Y93.359 E27.86821
G1 X20.48 Y91.772 E27.92961
G1 X20.107 Y89.908 E27.99284
G1 X20.107 Y78.88 E28.35963
G1 X18.923 Y78.274 E28.40387
G1 X15.581 Y76.017 E28.538
G1 X13.613 Y74.303 E28.6248
G1 X10.892 Y71.283 E28.76
G1 X9.369 Y69.109 E28.84829
G1 X7.421 Y65.432 E28.98669
G1 X6.491 Y62.997 E29.07338
G1 X5.597 Y59.483 E29.19398
G1 X5.147 Y55.667 E29.32178
G1 X5.153 Y52.96 E29.41182
G1 X5.603 Y49.193 E29.538
G1 X6.269 Y46.473 E29.63114
G1 X7.767 Y42.577 E29.76997
G1 X9.019 Y40.232 E29.85838
G1 X11.366 Y36.889 E29.99424
G1 X13.248 Y34.814 E30.08741
G1 X16.088 Y32.344 E30.2126
G1 X18.454 Y30.747 E30.30754
G1 X20.107 Y29.89 E30.36947
G1 X20.107 Y18.662 E30.74291
G1 X20.502 Y17.055 E30.79795
G1 X21.395 Y15.335 E30.86241
G0 F6000 X21.718 Y15.58
G1 F1200 X22.965 Y14.414 E30.91919
G1 X24.457 Y13.527 E30.97693
G1 X26.213 Y13.176 E31.03649
G1 X39.375 Y13.176 E31.47426
G1 X40.885 Y13.547 E31.52597
G1 X42.503 Y14.387 E31.58661
G1 X43.669 Y15.634 E31.64339
G1 X44.556 Y17.126 E31.70112
G1 X44.907 Y18.882 E31.76068
G1 X44.907 Y30.122 E32.13452
G1 X46.304 Y30.829 E32.1866
G1 X49.57 Y33.036 E32.3177
G1 X51.535 Y34.749 E32.40441
G1 X54.031 Y37.502 E32.528
G1 X55.732 Y39.911 E32.62609
G1 X57.616 Y43.46 E32.75973
G1 X58.549 Y45.899 E32.84658
G1 X59.429 Y49.37 E32.96568
G1 X59.867 Y53.083 E33.09003
G1 X59.861 Y55.79 E33.18007
G1 X59.429 Y59.393 E33.30076
G1 X58.535 Y62.88 E33.42049
G1 X57.453 Y65.647 E33.51931
G1 X55.717 Y68.879 E33.64133
G1 X54.194 Y71.053 E33.72962
G1 X51.537 Y74.001 E33.86162
G1 X49.57 Y75.715 E33.94839
G1 X46.309 Y77.918 E34.07928
G1 X44.907 Y78.635 E34.13166
G1 X44.907 Y90.044 E34.51112
G1 X44.536 Y91.554 E34.56284
G1 X43.696 Y93.172 E34.62347
G1 X42.449 Y94.338 E34.68026
G1 X40.957 Y95.225 E34.73799
G1 X39.201 Y95.576 E34.79755
G1 X26.039 Y95.576 E35.23532
G1 X24.529 Y95.205 E35.28703
G1 X22.911 Y94.365 E35.34767
G1 X21.745 Y93.118 E35.40445
G1 X20.858 Y91.626 E35.46218
G1 X20.507 Y89.87 E35.52174
G1 X20.507 Y78.635 E35.89542
G1 X19.105 Y77.918 E35.9478
G1 X15.844 Y75.715 E36.07869
G1 X13.876 Y74.001 E36.16549
G1 X11.22 Y71.053 E36.29746
G1 X9.697 Y68.879 E36.38575
G1 X7.795 Y65.289 E36.52088
G1 X6.879 Y62.898 E36.60604
G1 X5.985 Y59.384 E36.72664
G1 X5.547 Y55.668 E36.85109
G1 X5.553 Y52.961 E36.94112
G1 X5.992 Y49.288 E37.06416
G1 X6.658 Y46.568 E37.1573
G1 X8.12 Y42.765 E37.29281
G1 X9.372 Y40.42 E37.38122
G1 X11.662 Y37.158 E37.51379
G1 X13.544 Y35.083 E37.60696
G1 X16.312 Y32.676 E37.72896
G1 X18.678 Y31.079 E37.8239
G1 X20.507 Y30.133 E37.89239
G1 X20.507 Y18.708 E38.27239
G1 X20.878 Y17.198 E38.32411
G1 X21.718 Y15.58 E38.38474
G0 F6000 X22.041 Y15.825
G1 F1200 X23.206 Y14.736 E38.43778
G1 X24.603 Y13.905 E38.49185
G1 X26.251 Y13.576 E38.54774
G1 X39.328 Y13.576 E38.98268
G1 X40.743 Y13.924 E39.03115
G1 X42.258 Y14.71 E39.08792
G1 X43.347 Y15.875 E39.14096
G1 X44.178 Y17.272 E39.19502
G1 X44.507 Y18.92 E39.25091
G1 X44.507 Y30.368 E39.63168
G1 X46.123 Y31.186 E39.69192
G1 X49.307 Y33.338 E39.81974
G1 X51.272 Y35.051 E39.90644
G1 X53.704 Y37.733 E40.02686
G1 X55.405 Y40.142 E40.12494
G1 X57.242 Y43.603 E40.25527
G1 X58.175 Y46.042 E40.34212
G1 X59.041 Y49.468 E40.45965
G1 X59.467 Y53.082 E40.58069
G1 X59.461 Y55.789 E40.67072
G1 X59.032 Y59.345 E40.78985
G1 X58.162 Y62.734 E40.90623
G1 X57.08 Y65.501 E41.00504
G1 X55.389 Y68.649 E41.1239
G1 X53.866 Y70.823 E41.21218
G1 X51.274 Y73.699 E41.34095
G1 X49.307 Y75.413 E41.42773
G1 X46.127 Y77.562 E41.55538
G1 X44.507 Y78.39 E41.6159
G1 X44.507 Y89.997 E42.00195
G1 X44.159 Y91.412 E42.05041
G1 X43.373 Y92.927 E42.10718
G1 X42.208 Y94.016 E42.16022
G1 X40.811 Y94.847 E42.21428
G1 X39.163 Y95.176 E42.27018
G1 X26.086 Y95.176 E42.70512
G1 X24.671 Y94.828 E42.75359
G1 X23.156 Y94.042 E42.81035
G1 X22.067 Y92.877 E42.86339
G1 X21.236 Y91.48 E42.91746
G1 X20.907 Y89.832 E42.97335
G1 X20.907 Y78.39 E43.35391
G1 X19.287 Y77.562 E43.41443
G1 X16.107 Y75.413 E43.54208
G1 X14.139 Y73.699 E43.62888
G1 X11.548 Y70.823 E43.75763
G1 X10.025 Y68.649 E43.84592
G1 X8.169 Y65.146 E43.97777
G1 X7.253 Y62.755 E44.06293
G1 X6.373 Y59.286 E44.18196
G1 X5.947 Y55.669 E44.3031
G1 X5.953 Y52.962 E44.39313
G1 X6.381 Y49.383 E44.51302
G1 X7.047 Y46.663 E44.60616
G1 X8.473 Y42.953 E44.73836
G1 X9.725 Y40.608 E44.82677
G1 X11.958 Y37.427 E44.95604
G1 X13.84 Y35.352 E45.04921
G1 X16.536 Y33.008 E45.16803
G1 X18.902 Y31.411 E45.26297
G1 X20.907 Y30.377 E45.33801
G1 X20.907 Y18.755 E45.72456
G1 X21.255 Y17.34 E45.77302
G1 X22.041 Y15.825 E45.82979
G0 F6000 X22.364 Y16.07
G1 F1200 X23.445 Y15.06 E45.87899
G1 X24.751 Y14.283 E45.92954
G1 X26.289 Y13.976 E45.9817
G1 X39.282 Y13.976 E46.41385
G1 X40.6 Y14.3 E46.45899
G1 X42.013 Y15.033 E46.51194
G1 X43.023 Y16.114 E46.56114
G1 X43.8 Y17.42 E46.61168
G1 X44.107 Y18.958 E46.66385
G1 X44.107 Y30.614 E47.05153
G1 X45.942 Y31.543 E47.11994
G1 X49.044 Y33.64 E47.24447
G1 X51.009 Y35.353 E47.33118
G1 X53.377 Y37.964 E47.44841
G1 X55.078 Y40.373 E47.5465
G1 X56.868 Y43.746 E47.6735
G1 X57.801 Y46.185 E47.76036
G1 X58.653 Y49.566 E47.87633
G1 X59.067 Y53.081 E47.99404
G1 X59.061 Y55.788 E48.08408
G1 X58.644 Y59.246 E48.19993
G1 X57.789 Y62.588 E48.31466
G1 X56.707 Y65.355 E48.41348
G1 X55.061 Y68.419 E48.52916
G1 X53.538 Y70.593 E48.61745
G1 X51.011 Y73.397 E48.74299
G1 X49.044 Y75.111 E48.82977
G1 X45.945 Y77.206 E48.95418
G1 X44.107 Y78.145 E49.02283
G1 X44.107 Y89.951 E49.4155
G1 X43.783 Y91.269 E49.46064
G1 X43.05 Y92.682 E49.51359
G1 X41.969 Y93.692 E49.56279
G1 X40.663 Y94.469 E49.61334
G1 X39.125 Y94.776 E49.6655
G1 X26.132 Y94.776 E50.09765
G1 X24.814 Y94.452 E50.14279
G1 X23.401 Y93.719 E50.19573
G1 X22.391 Y92.638 E50.24494
G1 X21.614 Y91.332 E50.29548
G1 X21.307 Y89.794 E50.34765
G1 X21.307 Y78.145 E50.73509
G1 X19.469 Y77.206 E50.80374
G1 X16.37 Y75.111 E50.92816
G1 X14.402 Y73.397 E51.01496
G1 X11.876 Y70.593 E51.14048
G1 X10.353 Y68.419 E51.22877
G1 X8.543 Y65.003 E51.35735
G1 X7.627 Y62.612 E51.44251
G1 X6.761 Y59.188 E51.55998
G1 X6.347 Y55.67 E51.6778
G1 X6.353 Y52.963 E51.76783
G1 X6.77 Y49.478 E51.88457
G1 X7.436 Y46.758 E51.97771
G1 X8.826 Y43.141 E52.10659
G1 X10.078 Y40.796 E52.195
G1 X12.254 Y37.696 E52.32098
G1 X14.136 Y35.621 E52.41415
G1 X16.76 Y33.34 E52.52979
G1 X19.126 Y31.743 E52.62473
G1 X21.307 Y30.621 E52.70631
G1 X21.307 Y18.801 E53.09944
G1 X21.631 Y17.483 E53.14458
G1 X22.364 Y16.07 E53.19753
G0 F6000 X22.687 Y16.315
G1 F1200 X23.684 Y15.384 E53.2429
G1 X24.899 Y14.661 E53.28992
G1 X26.327 Y14.376 E53.33836
G1 X39.236 Y14.376 E53.76771
G1 X40.457 Y14.676 E53.80953
G1 X41.768 Y15.356 E53.85865
G1 X42.699 Y16.353 E53.90402
G1 X43.422 Y17.568 E53.95104
G1 X43.707 Y18.996 E53.99948
G1 X43.707 Y30.86 E54.39407
G1 X45.761 Y31.9 E54.47065
G1 X48.781 Y33.942 E54.5919
G1 X50.746 Y35.655 E54.6786
G1 X53.05 Y38.195 E54.79266
G1 X54.751 Y40.604 E54.89075
G1 X56.494 Y43.889 E55.01443
G1 X57.427 Y46.328 E55.10129
G1 X58.265 Y49.663 E55.21566
G1 X58.667 Y53.08 E55.33009
G1 X58.661 Y55.787 E55.42013
G1 X58.256 Y59.147 E55.53269
G1 X57.416 Y62.442 E55.64579
G1 X56.334 Y65.209 E55.74461
G1 X54.733 Y68.189 E55.85712
G1 X53.21 Y70.363 E55.94541
G1 X50.748 Y73.095 E56.06772
G1 X48.781 Y74.809 E56.1545
G1 X45.763 Y76.85 E56.27568
G1 X43.707 Y77.9 E56.35246
G1 X43.707 Y89.905 E56.75175
G1 X43.407 Y91.126 E56.79357
G1 X42.727 Y92.437 E56.84269
G1 X41.73 Y93.368 E56.88806
G1 X40.515 Y94.091 E56.93509
G1 X39.087 Y94.376 E56.98352
G1 X26.178 Y94.376 E57.41287
G1 X24.957 Y94.076 E57.45469
G1 X23.646 Y93.396 E57.50381
G1 X22.715 Y92.399 E57.54918
G1 X21.992 Y91.184 E57.59621
G1 X21.707 Y89.756 E57.64464
G1 X21.707 Y77.9 E58.03897
G1 X19.651 Y76.85 E58.11576
G1 X16.633 Y74.809 E58.23693
G1 X14.665 Y73.095 E58.32373
G1 X12.204 Y70.363 E58.44603
G1 X10.681 Y68.189 E58.53432
G1 X8.917 Y64.86 E58.65962
G1 X8.001 Y62.469 E58.74479
G1 X7.149 Y59.09 E58.86069
G1 X6.747 Y55.671 E58.97519
G1 X6.753 Y52.964 E59.06522
G1 X7.159 Y49.573 E59.17881
G1 X7.825 Y46.853 E59.27195
G1 X9.179 Y43.329 E59.39752
G1 X10.431 Y40.984 E59.48593
G1 X12.55 Y37.965 E59.60861
G1 X14.432 Y35.89 E59.70178
G1 X16.984 Y33.672 E59.81424
G1 X19.35 Y32.075 E59.90918
G1 X21.707 Y30.866 E59.99729
G1 X21.707 Y18.847 E60.39704
G1 X22.007 Y17.626 E60.43886
G1 X22.687 Y16.315 E60.48798
G0 F6000 X23.01 Y16.56
G1 F1200 X23.923 Y15.708 E60.52952
G1 X25.047 Y15.039 E60.57302
G1 X26.365 Y14.776 E60.61772
G1 X39.19 Y14.776 E61.04428
G1 X40.314 Y15.052 E61.08278
G1 X41.523 Y15.679 E61.12808
G1 X42.375 Y16.592 E61.16961
G1 X43.044 Y17.716 E61.21312
G1 X43.307 Y19.034 E61.25782
G1 X43.307 Y31.106 E61.65933
G1 X45.58 Y32.257 E61.74407
