;FLAVOR:Marlin
;TIME:2520
;Filament used: 1.57943m
;Layer height: 0.2
;MINX:5.918
;MINY:9.674
;MINZ:0.2
;MAXX:43.471
;MAXY:47.255
;MAXZ:21
;Generated with Cura_SteamEngine 5.3.0
M140 S65
M105
M190 S65
M104 S205
M105
M109 S205
M82 ;absolute extrusion mode
; Ender 3 Custom Start G-code
G92 E0 ; Reset Extruder
G28 ; Home all axes
G1 Z2.0 F3000 ; Move Z Axis up little to prevent scratching of Heat Bed
G1 X0.1 Y20 Z0.3 F5000.0 ; Move to start position
G1 X0.1 Y200.0 Z0.3 F1500.0 E15 ; Draw the first line
G1 X0.4 Y200.0 Z0.3 F5000.0 ; Move to side a little
G1 X0.4 Y20 Z0.3 F1500.0 E30 ; Draw the second line
G92 E0 ; Reset Extruder
G1 Z2.0 F3000 ; Move Z Axis up little to prevent scratching of Heat Bed
G1 X5 Y20 Z0.3 F5000.0 ; Move over to prevent blob squish
G92 E0
G92 E0
G1 F2700 E-5
;LAYER_COUNT:105
;LAYER:0
M107
G0 F6000 X11.701 Y14.894 Z0.2
;TYPE:SKIRT
G1 F2700 E0
G1 F1200 X13.922 Y13.073 E0.09553
G1 X15.153 Y12.282 E0.14419
G1 X17.283 Y11.213 E0.22346
G1 X19.823 Y10.315 E0.31306
G1 X21.066 Y10.026 E0.35551
G1 X23.898 Y9.692 E0.45035
G1 X24.95 Y9.674 E0.48535
G1 X25.573 Y9.693 E0.50608
G1 X28.09 Y9.995 E0.5904
G1 X30.403 Y10.562 E0.6696
G1 X31.631 Y11.001 E0.71298
G1 X34.268 Y12.298 E0.81072
G1 X35.573 Y13.145 E0.86247
G1 X37.73 Y14.929 E0.95557
G1 X38.604 Y15.83 E0.99732
G1 X40.464 Y18.249 E1.09881
G1 X41.122 Y19.343 E1.14127
G1 X42.366 Y22.062 E1.24072
G1 X42.767 Y23.3 E1.284
G1 X43.36 Y26.222 E1.38317
G1 X43.471 Y27.518 E1.42643
G1 X43.388 Y30.41 E1.52266
G1 X43.126 Y32.156 E1.58138
G1 X42.499 Y34.503 E1.66218
G1 X41.979 Y35.86 E1.71051
G1 X40.65 Y38.398 E1.8058
G1 X39.607 Y39.908 E1.86684
G1 X38.111 Y41.628 E1.94266
G1 X36.684 Y42.943 E2.0072
G1 X34.628 Y44.426 E2.09152
G1 X32.858 Y45.4 E2.15871
G1 X31.052 Y46.157 E2.22384
G1 X28.78 Y46.821 E2.30257
G1 X27.298 Y47.088 E2.35266
G1 X24.152 Y47.255 E2.45744
G1 X22.09 Y47.088 E2.52625
G1 X20.628 Y46.826 E2.57565
G1 X18.326 Y46.157 E2.65538
G1 X16.43 Y45.355 E2.72385
G1 X14.743 Y44.416 E2.78807
G1 X12.685 Y42.932 E2.87246
G1 X11.29 Y41.65 E2.93547
G1 X9.97 Y40.148 E3.00198
G1 X8.355 Y37.763 E3.09778
G1 X7.722 Y36.55 E3.14329
G1 X6.694 Y33.883 E3.23835
G1 X6.363 Y32.626 E3.28159
G1 X5.935 Y29.551 E3.38485
G1 X5.918 Y27.521 E3.45237
G1 X6.03 Y26.224 E3.49567
G1 X6.622 Y23.3 E3.59489
G1 X7.022 Y22.064 E3.6381
G1 X8.2 Y19.473 E3.73277
G1 X9.269 Y17.74 E3.80049
G1 X10.537 Y16.113 E3.8691
G1 X11.701 Y14.894 E3.92516
G0 F6000 X11.99 Y15.171
G1 F1200 X14.138 Y13.41 E4.01754
G1 X15.369 Y12.619 E4.06621
G1 X17.462 Y11.571 E4.14406
G1 X19.914 Y10.705 E4.23055
G1 X21.157 Y10.416 E4.273
G1 X23.905 Y10.092 E4.36503
G1 X24.938 Y10.074 E4.39939
G1 X25.561 Y10.093 E4.42012
G1 X28.042 Y10.392 E4.50324
G1 X30.268 Y10.939 E4.57948
G1 X31.496 Y11.378 E4.62285
G1 X34.05 Y12.634 E4.71751
G1 X35.355 Y13.481 E4.76926
G1 X37.443 Y15.208 E4.85938
G1 X38.317 Y16.109 E4.90113
G1 X40.121 Y18.455 E4.99956
G1 X40.779 Y19.549 E5.04203
G1 X41.985 Y22.185 E5.13844
G1 X42.386 Y23.423 E5.18172
G1 X42.961 Y26.256 E5.27787
G1 X43.072 Y27.552 E5.32113
G1 X42.992 Y30.351 E5.41426
G1 X42.73 Y32.097 E5.47299
G1 X42.125 Y34.36 E5.5509
G1 X41.605 Y35.717 E5.59923
G1 X40.321 Y38.171 E5.69135
G1 X39.305 Y39.645 E5.75089
G1 X37.809 Y41.365 E5.82671
G1 X36.413 Y42.649 E5.8898
G1 X34.435 Y44.076 E5.97092
G1 X32.703 Y45.031 E6.0367
G1 X30.897 Y45.788 E6.10183
G1 X28.709 Y46.427 E6.17765
G1 X27.227 Y46.694 E6.22773
G1 X24.184 Y46.856 E6.32909
G1 X22.161 Y46.694 E6.39659
G1 X20.699 Y46.432 E6.44599
G1 X18.438 Y45.773 E6.52432
G1 X16.625 Y45.005 E6.58981
G1 X14.938 Y44.066 E6.65402
G1 X12.956 Y42.637 E6.73529
G1 X11.561 Y41.355 E6.79831
G1 X10.271 Y39.884 E6.86338
G1 X8.71 Y37.578 E6.956
G1 X8.077 Y36.365 E7.0015
G1 X7.081 Y33.781 E7.09361
G1 X6.75 Y32.524 E7.13685
G1 X6.335 Y29.547 E7.23682
G1 X6.317 Y27.555 E7.30308
G1 X6.429 Y26.258 E7.34637
G1 X7.003 Y23.423 E7.44258
G1 X7.403 Y22.187 E7.48579
G1 X8.541 Y19.683 E7.57727
G1 X9.585 Y17.986 E7.64354
G1 X10.853 Y16.359 E7.71215
G1 X11.99 Y15.171 E7.76684
G0 F6000 X12.279 Y15.448
G1 F1200 X14.354 Y13.747 E7.85608
G1 X15.585 Y12.956 E7.90475
G1 X17.641 Y11.929 E7.98119
G1 X20.005 Y11.095 E8.06456
G1 X21.248 Y10.806 E8.10701
G1 X23.912 Y10.492 E8.19623
G1 X24.926 Y10.474 E8.22996
G1 X25.549 Y10.493 E8.25069
G1 X27.947 Y10.781 E8.33102
G1 X30.133 Y11.316 E8.40587
G1 X31.361 Y11.755 E8.44925
G1 X33.832 Y12.97 E8.54083
G1 X35.137 Y13.817 E8.59257
G1 X37.156 Y15.487 E8.67972
G1 X38.03 Y16.388 E8.72147
G1 X39.778 Y18.661 E8.81684
G1 X40.436 Y19.755 E8.8593
G1 X41.604 Y22.308 E8.95268
G1 X42.005 Y23.546 E8.99596
G1 X42.562 Y26.29 E9.08909
G1 X42.673 Y27.586 E9.13235
G1 X42.596 Y30.292 E9.22239
G1 X42.334 Y32.038 E9.28111
G1 X41.751 Y34.217 E9.35614
G1 X41.231 Y35.574 E9.40447
G1 X39.967 Y37.985 E9.49501
G1 X39.003 Y39.382 E9.55147
G1 X37.507 Y41.102 E9.62729
G1 X36.143 Y42.354 E9.68887
G1 X34.241 Y43.726 E9.76687
G1 X32.548 Y44.662 E9.83121
G1 X30.742 Y45.419 E9.89634
G1 X28.638 Y46.033 E9.96924
G1 X27.156 Y46.3 E10.01932
G1 X24.216 Y46.457 E10.11725
G1 X22.232 Y46.3 E10.18344
G1 X20.77 Y46.038 E10.23284
G1 X18.594 Y45.404 E10.30823
G1 X16.82 Y44.655 E10.37227
G1 X15.133 Y43.716 E10.43649
G1 X13.227 Y42.342 E10.51464
G1 X11.832 Y41.06 E10.57765
G1 X10.602 Y39.66 E10.63964
G1 X9.065 Y37.393 E10.73073
G1 X8.432 Y36.18 E10.77624
G1 X7.468 Y33.679 E10.86539
G1 X7.137 Y32.422 E10.90862
G1 X6.735 Y29.543 E11.00531
G1 X6.716 Y27.589 E11.0703
G1 X6.828 Y26.292 E11.1136
G1 X7.384 Y23.546 E11.20679
G1 X7.784 Y22.31 E11.25
G1 X8.882 Y19.892 E11.33832
G1 X9.901 Y18.232 E11.40311
G1 X11.169 Y16.605 E11.47171
G1 X12.279 Y15.448 E11.52504
G0 F6000 X12.567 Y15.725
G1 F1200 X14.57 Y14.084 E11.61116
G1 X15.801 Y13.293 E11.65983
G1 X17.819 Y12.287 E11.73483
G1 X20.096 Y11.485 E11.81512
G1 X21.339 Y11.196 E11.85757
G1 X23.919 Y10.892 E11.94397
G1 X24.914 Y10.874 E11.97707
G1 X25.537 Y10.893 E11.9978
G1 X27.899 Y11.178 E12.07693
G1 X29.998 Y11.693 E12.14882
G1 X31.226 Y12.132 E12.19219
G1 X33.614 Y13.306 E12.2807
G1 X34.919 Y14.153 E12.33244
G1 X36.869 Y15.766 E12.41661
G1 X37.743 Y16.667 E12.45836
G1 X39.435 Y18.867 E12.55067
G1 X40.093 Y19.961 E12.59313
G1 X41.223 Y22.431 E12.68347
G1 X41.624 Y23.669 E12.72676
G1 X42.163 Y26.324 E12.81686
G1 X42.274 Y27.62 E12.86013
G1 X42.2 Y30.233 E12.94707
G1 X41.947 Y31.935 E13.0043
G1 X41.377 Y34.074 E13.07793
G1 X40.857 Y35.431 E13.12626
G1 X39.637 Y37.758 E13.21365
G1 X38.701 Y39.119 E13.26859
G1 X37.205 Y40.839 E13.34441
G1 X35.873 Y42.059 E13.40448
G1 X34.047 Y43.376 E13.47936
G1 X32.393 Y44.293 E13.54227
G1 X30.587 Y45.05 E13.6074
G1 X28.567 Y45.639 E13.67738
G1 X27.085 Y45.906 E13.72747
G1 X24.247 Y46.058 E13.82199
G1 X22.303 Y45.906 E13.88685
G1 X20.841 Y45.644 E13.93625
G1 X18.75 Y45.035 E14.00869
G1 X16.976 Y44.286 E14.07273
G1 X15.328 Y43.367 E14.13549
G1 X13.498 Y42.047 E14.21054
G1 X12.103 Y40.765 E14.27355
G1 X10.903 Y39.396 E14.3341
G1 X9.42 Y37.208 E14.42202
G1 X8.787 Y35.995 E14.46753
G1 X7.855 Y33.577 E14.55372
G1 X7.524 Y32.32 E14.59695
G1 X7.135 Y29.539 E14.69035
G1 X7.115 Y27.623 E14.75408
G1 X7.227 Y26.326 E14.79738
G1 X7.765 Y23.669 E14.88754
G1 X8.165 Y22.433 E14.93075
G1 X9.223 Y20.101 E15.01592
G1 X10.217 Y18.478 E15.07922
G1 X11.485 Y16.851 E15.14783
G1 X12.567 Y15.725 E15.19977
G0 F6000 X12.855 Y16.002
G1 F1200 X14.786 Y14.421 E15.28277
G1 X16.017 Y13.63 E15.33144
G1 X17.997 Y12.645 E15.405
G1 X20.187 Y11.875 E15.48221
G1 X21.43 Y11.586 E15.52465
G1 X23.926 Y11.292 E15.60824
G1 X24.902 Y11.274 E15.64071
G1 X25.525 Y11.293 E15.66144
G1 X27.851 Y11.575 E15.73937
G1 X29.863 Y12.07 E15.80829
G1 X31.091 Y12.509 E15.85166
G1 X33.396 Y13.642 E15.93709
G1 X34.701 Y14.489 E15.98883
G1 X36.582 Y16.045 E16.07002
G1 X37.456 Y16.946 E16.11177
G1 X39.092 Y19.073 E16.20102
G1 X39.75 Y20.167 E16.24349
G1 X40.842 Y22.554 E16.33079
G1 X41.243 Y23.792 E16.37407
G1 X41.764 Y26.358 E16.46116
G1 X41.875 Y27.654 E16.50442
G1 X41.804 Y30.174 E16.58827
G1 X41.551 Y31.876 E16.6455
G1 X41.003 Y33.931 E16.71624
G1 X40.483 Y35.288 E16.76458
G1 X39.283 Y37.572 E16.85039
G1 X38.399 Y38.856 E16.90224
G1 X36.903 Y40.576 E16.97806
G1 X35.603 Y41.764 E17.03663
G1 X33.853 Y43.026 E17.10839
G1 X32.238 Y43.924 E17.16985
G1 X30.432 Y44.681 E17.23498
G1 X28.496 Y45.245 E17.30205
G1 X27.014 Y45.512 E17.35214
G1 X24.278 Y45.659 E17.44327
G1 X22.374 Y45.512 E17.50678
G1 X20.912 Y45.25 E17.55618
G1 X18.906 Y44.666 E17.62567
G1 X17.132 Y43.917 E17.68972
G1 X15.523 Y43.018 E17.75102
G1 X13.769 Y41.752 E17.82297
G1 X12.374 Y40.47 E17.88598
G1 X11.204 Y39.133 E17.94508
G1 X9.775 Y37.023 E18.02983
G1 X9.142 Y35.81 E18.07534
G1 X8.242 Y33.475 E18.15857
G1 X7.911 Y32.218 E18.20181
G1 X7.535 Y29.535 E18.29192
G1 X7.514 Y27.657 E18.35438
G1 X7.626 Y26.36 E18.39768
G1 X8.146 Y23.792 E18.48483
G1 X8.546 Y22.556 E18.52804
G1 X9.587 Y20.267 E18.61167
G1 X10.533 Y18.724 E18.67187
G1 X11.801 Y17.097 E18.74048
G1 X12.855 Y16.002 E18.79103
G0 F6000 X13.109 Y16.311
G1 F1200 X15.002 Y14.758 E18.87246
G1 X16.233 Y13.967 E18.92113
G1 X18.175 Y13.003 E18.99324
G1 X20.278 Y12.265 E19.06737
G1 X21.521 Y11.976 E19.10982
G1 X23.934 Y11.692 E19.19063
G1 X24.89 Y11.674 E19.22243
G1 X25.513 Y11.693 E19.24316
G1 X27.756 Y11.964 E19.31831
G1 X29.728 Y12.447 E19.38583
G1 X30.956 Y12.886 E19.42921
G1 X33.178 Y13.978 E19.51155
G1 X34.483 Y14.825 E19.5633
G1 X36.295 Y16.324 E19.64152
G1 X37.169 Y17.225 E19.68327
G1 X38.749 Y19.279 E19.76946
G1 X39.407 Y20.373 E19.81192
G1 X40.461 Y22.677 E19.89619
G1 X40.862 Y23.915 E19.93947
G1 X41.365 Y26.392 E20.02354
G1 X41.476 Y27.688 E20.0668
G1 X41.408 Y30.115 E20.14755
G1 X41.155 Y31.817 E20.20478
G1 X40.629 Y33.788 E20.27263
G1 X40.109 Y35.145 E20.32097
G1 X38.953 Y37.346 E20.40366
G1 X38.097 Y38.593 E20.45396
G1 X36.601 Y40.313 E20.52978
G1 X35.334 Y41.468 E20.5868
G1 X33.658 Y42.677 E20.65554
G1 X32.083 Y43.555 E20.71551
G1 X30.277 Y44.312 E20.78064
G1 X28.425 Y44.851 E20.8448
G1 X26.943 Y45.118 E20.89488
G1 X24.308 Y45.26 E20.98265
G1 X22.445 Y45.118 E21.04479
G1 X20.983 Y44.856 E21.09419
G1 X19.062 Y44.297 E21.16074
G1 X17.288 Y43.548 E21.22478
G1 X15.718 Y42.669 E21.28463
G1 X14.04 Y41.457 E21.35348
G1 X12.645 Y40.175 E21.41649
G1 X11.505 Y38.87 E21.47412
G1 X10.13 Y36.838 E21.55573
G1 X9.497 Y35.625 E21.60124
G1 X8.629 Y33.373 E21.68151
G1 X8.298 Y32.116 E21.72474
G1 X7.935 Y29.53 E21.8116
G1 X7.913 Y27.691 E21.87277
G1 X8.025 Y26.394 E21.91606
G1 X8.527 Y23.915 E22.00019
G1 X8.927 Y22.679 E22.0434
G1 X9.928 Y20.476 E22.12388
G1 X10.849 Y18.97 E22.18259
G1 X12.117 Y17.343 E22.2512
G1 X13.109 Y16.311 E22.29881
G0 F6000 X13.397 Y16.589
G1 F1200 X15.218 Y15.095 E22.37715
G1 X16.449 Y14.304 E22.42582
G1 X18.308 Y13.38 E22.49487
G1 X20.369 Y12.655 E22.56754
G1 X21.612 Y12.366 E22.60998
G1 X23.942 Y12.092 E22.68801
G1 X24.878 Y12.074 E22.71915
G1 X25.501 Y12.093 E22.73988
G1 X27.708 Y12.361 E22.81382
G1 X29.593 Y12.824 E22.87838
G1 X30.821 Y13.263 E22.92176
G1 X32.96 Y14.314 E23.00102
G1 X34.265 Y15.161 E23.05277
G1 X36.008 Y16.603 E23.12801
G1 X36.882 Y17.504 E23.16976
G1 X38.406 Y19.485 E23.25289
G1 X39.064 Y20.579 E23.29535
G1 X40.08 Y22.8 E23.37658
G1 X40.481 Y24.038 E23.41987
G1 X40.966 Y26.426 E23.50091
G1 X41.077 Y27.722 E23.54418
G1 X41.012 Y30.056 E23.62183
G1 X40.759 Y31.758 E23.67907
G1 X40.255 Y33.645 E23.74403
G1 X39.735 Y35.002 E23.79236
G1 X38.623 Y37.12 E23.87193
G1 X37.795 Y38.33 E23.92069
G1 X36.299 Y40.05 E23.99651
G1 X35.065 Y41.172 E24.05198
G1 X33.463 Y42.328 E24.11769
G1 X31.928 Y43.186 E24.17618
G1 X30.122 Y43.943 E24.24131
G1 X28.354 Y44.457 E24.30255
G1 X26.872 Y44.724 E24.35263
G1 X24.338 Y44.861 E24.43704
G1 X22.516 Y44.724 E24.49781
G1 X21.054 Y44.462 E24.54721
G1 X19.218 Y43.928 E24.6108
G1 X17.444 Y43.179 E24.67485
G1 X15.914 Y42.32 E24.73321
G1 X14.311 Y41.162 E24.79898
G1 X12.916 Y39.88 E24.862
G1 X11.807 Y38.607 E24.91815
G1 X10.485 Y36.653 E24.99662
G1 X9.852 Y35.44 E25.04213
G1 X9.016 Y33.271 E25.11944
G1 X8.685 Y32.014 E25.16267
G1 X8.335 Y29.525 E25.24627
G1 X8.312 Y27.725 E25.30615
G1 X8.424 Y26.428 E25.34945
G1 X8.908 Y24.038 E25.43055
G1 X9.308 Y22.802 E25.47376
G1 X10.27 Y20.684 E25.55113
G1 X11.165 Y19.216 E25.60831
G1 X12.433 Y17.589 E25.67692
G1 X13.397 Y16.589 E25.72312
G0 F6000 X13.685 Y16.867
G1 F1200 X15.434 Y15.432 E25.79837
G1 X16.665 Y14.641 E25.84703
G1 X18.486 Y13.738 E25.91464
G1 X20.46 Y13.045 E25.98422
G1 X21.703 Y12.756 E26.02667
G1 X23.95 Y12.492 E26.10192
G1 X24.866 Y12.474 E26.13239
G1 X25.489 Y12.493 E26.15312
G1 X27.613 Y12.75 E26.22428
G1 X29.458 Y13.201 E26.28745
G1 X30.686 Y13.64 E26.33083
G1 X32.742 Y14.65 E26.40701
G1 X34.047 Y15.497 E26.45876
G1 X35.721 Y16.882 E26.53102
G1 X36.595 Y17.783 E26.57277
G1 X38.063 Y19.691 E26.65284
G1 X38.721 Y20.785 E26.6953
G1 X39.699 Y22.923 E26.7735
G1 X40.1 Y24.161 E26.81678
G1 X40.567 Y26.46 E26.89481
G1 X40.678 Y27.756 E26.93807
G1 X40.616 Y29.997 E27.01264
G1 X40.363 Y31.699 E27.06987
G1 X39.881 Y33.502 E27.13194
G1 X39.361 Y34.859 E27.18028
G1 X38.292 Y36.895 E27.25676
G1 X37.493 Y38.067 E27.30394
G1 X35.997 Y39.787 E27.37976
G1 X34.796 Y40.876 E27.43368
G1 X33.267 Y41.979 E27.49638
G1 X31.773 Y42.817 E27.55336
G1 X29.967 Y43.574 E27.61849
G1 X28.283 Y44.063 E27.67681
G1 X26.801 Y44.33 E27.7269
G1 X24.368 Y44.462 E27.80794
G1 X22.587 Y44.33 E27.86734
G1 X21.125 Y44.068 E27.91674
G1 X19.374 Y43.559 E27.97739
G1 X17.6 Y42.81 E28.04143
G1 X16.11 Y41.971 E28.09831
G1 X14.582 Y40.867 E28.16101
G1 X13.187 Y39.585 E28.22402
G1 X12.138 Y38.383 E28.27708
G1 X10.84 Y36.468 E28.35403
G1 X10.207 Y35.255 E28.39954
G1 X9.403 Y33.169 E28.47389
G1 X9.072 Y31.912 E28.51713
G1 X8.735 Y29.52 E28.59747
G1 X8.711 Y27.759 E28.65605
G1 X8.823 Y26.462 E28.69935
G1 X9.289 Y24.161 E28.77743
G1 X9.689 Y22.925 E28.82064
G1 X10.634 Y20.85 E28.89648
G1 X11.481 Y19.462 E28.95056
G1 X12.749 Y17.835 E29.01916
G1 X13.685 Y16.867 E29.06395
G0 F6000 X13.972 Y17.146
G1 F1200 X15.65 Y15.769 E29.13615
G1 X16.881 Y14.978 E29.18481
G1 X18.663 Y14.097 E29.25093
G1 X20.551 Y13.435 E29.31747
G1 X21.794 Y13.146 E29.35992
G1 X23.958 Y12.892 E29.43239
G1 X24.854 Y12.874 E29.4622
G1 X25.477 Y12.893 E29.48293
G1 X27.518 Y13.139 E29.5513
G1 X29.323 Y13.578 E29.61309
G1 X30.551 Y14.017 E29.65646
G1 X32.524 Y14.986 E29.72957
G1 X33.829 Y15.833 E29.78132
G1 X35.434 Y17.161 E29.8506
G1 X36.308 Y18.062 E29.89235
G1 X37.72 Y19.897 E29.96936
G1 X38.378 Y20.991 E30.01182
G1 X39.318 Y23.046 E30.08698
G1 X39.719 Y24.284 E30.13027
G1 X40.168 Y26.494 E30.20527
G1 X40.279 Y27.79 E30.24854
G1 X40.22 Y29.938 E30.32001
G1 X39.967 Y31.64 E30.37724
G1 X39.507 Y33.359 E30.43642
G1 X38.987 Y34.716 E30.48476
G1 X37.961 Y36.67 E30.55816
G1 X37.191 Y37.804 E30.60375
G1 X35.695 Y39.524 E30.67957
G1 X34.528 Y40.579 E30.73189
G1 X33.071 Y41.63 E30.79165
G1 X31.618 Y42.448 E30.84711
G1 X29.812 Y43.205 E30.91224
G1 X28.212 Y43.669 E30.96765
G1 X26.73 Y43.936 E31.01773
G1 X24.397 Y44.063 E31.09544
G1 X22.658 Y43.936 E31.15343
G1 X21.196 Y43.674 E31.20284
G1 X19.53 Y43.19 E31.26054
G1 X17.756 Y42.441 E31.32459
G1 X16.307 Y41.623 E31.37993
G1 X14.853 Y40.572 E31.4396
G1 X13.458 Y39.29 E31.50261
G1 X12.469 Y38.158 E31.55261
G1 X11.195 Y36.283 E31.62801
G1 X10.562 Y35.07 E31.67351
G1 X9.79 Y33.067 E31.74491
G1 X9.459 Y31.81 E31.78814
G1 X9.135 Y29.514 E31.86527
G1 X9.11 Y27.793 E31.92251
G1 X9.222 Y26.496 E31.96581
G1 X9.67 Y24.284 E32.04088
G1 X10.07 Y23.048 E32.08409
G1 X10.976 Y21.058 E32.15681
G1 X11.797 Y19.708 E32.20936
G1 X13.065 Y18.081 E32.27797
G1 X13.972 Y17.146 E32.3213
G0 F6000 X14.259 Y17.425
G1 F1200 X15.866 Y16.106 E32.39044
G1 X17.097 Y15.315 E32.43911
G1 X18.796 Y14.474 E32.50216
G1 X20.642 Y13.825 E32.56725
G1 X21.885 Y13.536 E32.60969
G1 X23.966 Y13.292 E32.67938
G1 X24.842 Y13.274 E32.70852
G1 X25.465 Y13.293 E32.72925
G1 X27.424 Y13.528 E32.79488
G1 X29.188 Y13.955 E32.85524
G1 X30.416 Y14.394 E32.89862
G1 X32.306 Y15.322 E32.96865
G1 X33.611 Y16.169 E33.02039
G1 X35.147 Y17.44 E33.0867
G1 X36.021 Y18.341 E33.12845
G1 X37.377 Y20.103 E33.2024
G1 X38.035 Y21.197 E33.24486
G1 X38.937 Y23.169 E33.31699
G1 X39.338 Y24.407 E33.36027
G1 X39.769 Y26.528 E33.43226
G1 X39.88 Y27.824 E33.47552
