;FLAVOR:Marlin
;TIME:9003
;Filament used: 5.53957m
;Layer height: 0.2
;MINX:87.4
;MINY:84
;MINZ:0.2
;MAXX:147.6
;MAXY:151
;MAXZ:35
;Generated with Cura_SteamEngine 4.13.1
M140 S60
M105
M190 S60
M104 S200
M105
M109 S200
M82 ;absolute extrusion mode
; Ender 3 Custom Start G-code
G92 E0 ; Reset Extruder
G28 ; Home all axes
G1 Z2.0 F3000 ; Move Z Axis up little to prevent scratching of Heat Bed
G1 X0.1 Y20 Z0.3 F5000.0 ; Move to start position
G1 X0.1 Y200.0 Z0.3 F1500.0 E15 ; Draw the first line
G1 X0.4 Y200.0 Z0.3 F5000.0 ; Move to side a little
G1 X0.4 Y20 Z0.3 F1500.0 E30 ; Draw the second line
G92 E0 ; Reset Extruder
G1 Z2.0 F3000 ; Move Z Axis up little to prevent scratching of Heat Bed
G1 X5 Y20 Z0.3 F5000.0 ; Move over to prevent blob squish
G92 E0
G92 E0
G1 F2700 E-5
;LAYER_COUNT:175
;LAYER:0
M107
G0 F6000 X90.673 Y87.285 Z0.2
;TYPE:SKIRT
G1 F2700 E0
G1 F1200 X90.768 Y87.191 E0.00445
G1 X91.462 Y86.56 E0.03564
G1 X92.208 Y85.991 E0.06685
G1 X92.999 Y85.487 E0.09804
G1 X93.83 Y85.053 E0.12922
G1 X94.695 Y84.691 E0.16041
G1 X95.588 Y84.404 E0.19161
G1 X96.502 Y84.194 E0.2228
G1 X97.431 Y84.063 E0.25401
G1 X98.134 Y84.016 E0.27744
G1 X98.519 Y84.006 E0.29025
G1 X99.062 Y84 E0.30831
G1 X135.793 Y84 E1.52999
G1 X136.652 Y84.011 E1.55856
G1 X137.588 Y84.064 E1.58974
G1 X138.516 Y84.197 E1.62092
G1 X139.43 Y84.409 E1.65213
G1 X140.323 Y84.697 E1.68334
G1 X141.187 Y85.061 E1.71452
G1 X142.018 Y85.497 E1.74573
G1 X142.808 Y86.002 E1.77692
G1 X143.552 Y86.572 E1.80809
G1 X144.273 Y87.232 E1.8406
G1 X144.368 Y87.327 E1.84507
G1 X145.002 Y88.018 E1.87626
G1 X145.576 Y88.76 E1.90746
G1 X146.083 Y89.549 E1.93866
G1 X146.522 Y90.377 E1.96983
G1 X146.889 Y91.241 E2.00105
G1 X147.181 Y92.132 E2.03224
G1 X147.395 Y93.045 E2.06342
G1 X147.532 Y93.973 E2.09462
G1 X147.584 Y94.734 E2.11999
G1 X147.594 Y95.1 E2.13217
G1 X147.6 Y95.61 E2.14914
G1 X147.6 Y99.357 E2.27376
G1 X147.59 Y100.056 E2.29701
G1 X147.536 Y100.993 E2.32823
G1 X147.46 Y101.589 E2.34821
G1 X147.343 Y102.338 E2.37343
G1 X147.105 Y103.723 E2.42017
G1 X146.753 Y106.19 E2.50305
G1 X146.469 Y108.683 E2.58651
G1 X146.255 Y111.192 E2.67026
G1 X146.111 Y113.723 E2.75458
G1 X146.04 Y116.208 E2.83726
G1 X146.04 Y118.733 E2.92124
G1 X146.11 Y121.255 E3.00516
G1 X146.253 Y123.777 E3.08917
G1 X146.466 Y126.3 E3.17339
G1 X146.745 Y128.762 E3.2558
G1 X147.106 Y131.299 E3.34103
G1 X147.438 Y133.277 E3.40774
G1 X147.554 Y134.207 E3.43891
G1 X147.584 Y134.741 E3.4567
G1 X147.594 Y135.119 E3.46927
G1 X147.6 Y135.662 E3.48734
G1 X147.599 Y139.345 E3.60983
G1 X147.589 Y140.051 E3.63332
G1 X147.536 Y140.987 E3.6645
G1 X147.403 Y141.916 E3.69571
G1 X147.191 Y142.829 E3.72689
G1 X146.903 Y143.722 E3.75809
G1 X146.539 Y144.586 E3.78928
G1 X146.104 Y145.417 E3.82047
G1 X145.599 Y146.207 E3.85166
G1 X145.028 Y146.952 E3.88288
G1 X144.368 Y147.673 E3.91539
G1 X144.273 Y147.768 E3.91986
G1 X143.582 Y148.402 E3.95105
G1 X142.84 Y148.976 E3.98225
G1 X142.051 Y149.483 E4.01344
G1 X141.223 Y149.922 E4.04461
G1 X140.359 Y150.289 E4.07584
G1 X139.468 Y150.581 E4.10702
G1 X138.555 Y150.795 E4.13821
G1 X137.627 Y150.932 E4.16941
G1 X136.866 Y150.984 E4.19478
G1 X136.481 Y150.994 E4.20759
G1 X135.938 Y151 E4.22565
G1 X99.05 Y150.999 E5.45255
G1 X98.348 Y150.989 E5.4759
G1 X97.412 Y150.936 E5.50708
G1 X96.484 Y150.803 E5.53827
G1 X95.57 Y150.591 E5.56947
G1 X94.677 Y150.303 E5.60068
G1 X93.813 Y149.939 E5.63186
G1 X92.982 Y149.503 E5.66308
G1 X92.192 Y148.998 E5.69426
G1 X91.448 Y148.428 E5.72543
G1 X90.727 Y147.768 E5.75794
G1 X90.632 Y147.673 E5.76241
G1 X89.998 Y146.982 E5.7936
G1 X89.424 Y146.24 E5.8248
G1 X88.917 Y145.451 E5.856
G1 X88.478 Y144.623 E5.88717
G1 X88.111 Y143.759 E5.91839
G1 X87.819 Y142.868 E5.94958
G1 X87.605 Y141.955 E5.98077
G1 X87.468 Y141.027 E6.01197
G1 X87.417 Y140.295 E6.03637
G1 X87.404 Y139.831 E6.05181
G1 X87.4 Y139.397 E6.06625
G1 X87.401 Y135.637 E6.1913
G1 X87.412 Y134.927 E6.21492
G1 X87.467 Y133.99 E6.24614
G1 X87.544 Y133.39 E6.26626
G1 X87.675 Y132.567 E6.29398
G1 X87.895 Y131.279 E6.33744
G1 X88.257 Y128.728 E6.42313
G1 X88.536 Y126.261 E6.50571
G1 X88.748 Y123.754 E6.58939
G1 X88.89 Y121.225 E6.67364
G1 X88.961 Y118.704 E6.75752
G1 X88.959 Y116.179 E6.8415
G1 X88.888 Y113.691 E6.92429
G1 X88.744 Y111.172 E7.0082
G1 X88.529 Y108.662 E7.09199
G1 X88.243 Y106.158 E7.17582
G1 X87.885 Y103.641 E7.26038
G1 X87.562 Y101.719 E7.3252
G1 X87.446 Y100.788 E7.3564
G1 X87.416 Y100.263 E7.37389
G1 X87.406 Y99.881 E7.3866
G1 X87.4 Y99.338 E7.40466
G1 X87.401 Y95.61 E7.52866
G1 X87.411 Y94.94 E7.55095
G1 X87.465 Y94.004 E7.58213
G1 X87.599 Y93.075 E7.61335
G1 X87.811 Y92.162 E7.64452
G1 X88.1 Y91.269 E7.67574
G1 X88.464 Y90.405 E7.70692
G1 X88.901 Y89.575 E7.73812
G1 X89.406 Y88.785 E7.76931
G1 X89.977 Y88.041 E7.8005
G1 X90.673 Y87.285 E7.83468
G0 F6000 X90.954 Y87.569
G1 F1200 X91.049 Y87.475 E7.83912
G1 X91.731 Y86.857 E7.86973
G1 X92.464 Y86.3 E7.90035
G1 X93.243 Y85.808 E7.931
G1 X94.061 Y85.386 E7.96161
G1 X94.913 Y85.037 E7.99223
G1 X95.792 Y84.763 E8.02286
G1 X96.691 Y84.566 E8.05347
G1 X97.604 Y84.448 E8.08409
G1 X98.147 Y84.416 E8.10218
G1 X98.523 Y84.406 E8.11469
G1 X99.062 Y84.4 E8.13262
G1 X135.793 Y84.4 E9.3543
G1 X136.646 Y84.411 E9.38267
G1 X137.565 Y84.464 E9.41329
G1 X138.476 Y84.597 E9.44391
G1 X139.372 Y84.808 E9.47452
G1 X140.247 Y85.096 E9.50516
G1 X141.093 Y85.459 E9.53578
G1 X141.904 Y85.894 E9.56639
G1 X142.675 Y86.398 E9.59703
G1 X143.399 Y86.966 E9.62763
G1 X143.99 Y87.515 E9.65446
G1 X144.085 Y87.61 E9.65893
G1 X144.707 Y88.288 E9.68953
G1 X145.268 Y89.018 E9.72015
G1 X145.764 Y89.794 E9.75079
G1 X146.19 Y90.61 E9.7814
G1 X146.544 Y91.46 E9.81203
G1 X146.822 Y92.338 E9.84266
G1 X147.024 Y93.236 E9.87327
G1 X147.147 Y94.149 E9.90391
G1 X147.184 Y94.747 E9.92384
G1 X147.194 Y95.106 E9.93579
G1 X147.2 Y95.61 E9.95255
G1 X147.2 Y99.352 E10.07701
G1 X147.19 Y100.051 E10.10026
G1 X147.137 Y100.97 E10.13088
G1 X147.065 Y101.527 E10.14956
G1 X146.948 Y102.27 E10.17457
G1 X146.714 Y103.635 E10.22064
G1 X146.359 Y106.12 E10.30413
G1 X146.072 Y108.64 E10.38848
G1 X145.856 Y111.172 E10.473
G1 X145.713 Y113.688 E10.55682
G1 X145.64 Y116.231 E10.64144
G1 X145.64 Y118.744 E10.72502
G1 X145.711 Y121.29 E10.80973
G1 X145.852 Y123.797 E10.89325
G1 X146.065 Y126.307 E10.97703
G1 X146.35 Y128.827 E11.06138
G1 X146.713 Y131.381 E11.14718
G1 X147.043 Y133.343 E11.21335
G1 X147.156 Y134.257 E11.24399
G1 X147.184 Y134.754 E11.26054
G1 X147.194 Y135.123 E11.27282
G1 X147.2 Y135.662 E11.29075
G1 X147.199 Y139.339 E11.41305
G1 X147.189 Y140.045 E11.43653
G1 X147.136 Y140.964 E11.46715
G1 X147.003 Y141.875 E11.49777
G1 X146.792 Y142.771 E11.52838
G1 X146.504 Y143.646 E11.55902
G1 X146.141 Y144.492 E11.58964
G1 X145.706 Y145.303 E11.62025
G1 X145.203 Y146.074 E11.65087
G1 X144.634 Y146.798 E11.6815
G1 X144.085 Y147.39 E11.70835
G1 X143.99 Y147.485 E11.71282
G1 X143.312 Y148.107 E11.74342
G1 X142.582 Y148.668 E11.77404
G1 X141.806 Y149.164 E11.80467
G1 X140.99 Y149.59 E11.83529
G1 X140.14 Y149.944 E11.86591
G1 X139.262 Y150.222 E11.89655
G1 X138.364 Y150.424 E11.92716
G1 X137.451 Y150.547 E11.9578
G1 X136.853 Y150.584 E11.97773
G1 X136.477 Y150.594 E11.99024
G1 X135.938 Y150.6 E12.00817
G1 X99.056 Y150.599 E13.23487
G1 X98.354 Y150.589 E13.25822
G1 X97.435 Y150.536 E13.28883
G1 X96.524 Y150.403 E13.31946
G1 X95.628 Y150.192 E13.35007
G1 X94.753 Y149.904 E13.38071
G1 X93.907 Y149.541 E13.41133
G1 X93.096 Y149.106 E13.44194
G1 X92.325 Y148.602 E13.47258
G1 X91.601 Y148.034 E13.50318
G1 X91.01 Y147.485 E13.53001
G1 X90.915 Y147.39 E13.53448
G1 X90.293 Y146.712 E13.56508
G1 X89.732 Y145.982 E13.5957
G1 X89.236 Y145.206 E13.62634
G1 X88.81 Y144.39 E13.65695
G1 X88.456 Y143.54 E13.68758
G1 X88.178 Y142.662 E13.71821
G1 X87.976 Y141.764 E13.74882
G1 X87.853 Y140.851 E13.77946
G1 X87.817 Y140.28 E13.79849
G1 X87.804 Y139.828 E13.81353
G1 X87.8 Y139.394 E13.82797
G1 X87.801 Y135.643 E13.95273
G1 X87.812 Y134.933 E13.97634
G1 X87.866 Y134.014 E14.00696
G1 X87.939 Y133.452 E14.02581
G1 X88.069 Y132.634 E14.05336
G1 X88.291 Y131.33 E14.09735
G1 X88.652 Y128.792 E14.18262
G1 X88.938 Y126.269 E14.26707
G1 X89.148 Y123.777 E14.35025
G1 X89.29 Y121.258 E14.43416
G1 X89.361 Y118.715 E14.51878
G1 X89.359 Y116.203 E14.60233
G1 X89.286 Y113.656 E14.68708
G1 X89.141 Y111.116 E14.77169
G1 X88.931 Y108.654 E14.85388
G1 X88.638 Y106.088 E14.93978
G1 X88.283 Y103.603 E15.02327
G1 X87.956 Y101.653 E15.08903
G1 X87.844 Y100.739 E15.11966
G1 X87.816 Y100.25 E15.13595
G1 X87.806 Y99.877 E15.14836
G1 X87.8 Y99.338 E15.16629
G1 X87.801 Y95.616 E15.29008
G1 X87.811 Y94.946 E15.31237
G1 X87.865 Y94.027 E15.34299
G1 X87.998 Y93.116 E15.37361
G1 X88.21 Y92.22 E15.40423
G1 X88.499 Y91.346 E15.43485
G1 X88.862 Y90.5 E15.46547
G1 X89.298 Y89.689 E15.49609
G1 X89.802 Y88.918 E15.52673
G1 X90.371 Y88.195 E15.55733
G1 X90.954 Y87.569 E15.58578
G0 F6000 X91.236 Y87.853
G1 F1200 X91.331 Y87.759 E15.59023
G1 X92 Y87.153 E15.62025
G1 X92.721 Y86.609 E15.65029
G1 X93.486 Y86.13 E15.68031
G1 X94.292 Y85.721 E15.71037
G1 X95.13 Y85.385 E15.7404
G1 X95.994 Y85.124 E15.77042
G1 X96.879 Y84.94 E15.80049
G1 X98.161 Y84.816 E15.84333
G1 X98.528 Y84.806 E15.85554
G1 X99.062 Y84.8 E15.8733
G1 X135.793 Y84.8 E17.09498
G1 X136.64 Y84.811 E17.12315
G1 X137.542 Y84.864 E17.1532
G1 X138.435 Y84.996 E17.18323
G1 X139.313 Y85.207 E17.21326
G1 X140.169 Y85.495 E17.2433
G1 X140.997 Y85.857 E17.27336
G1 X141.789 Y86.291 E17.30339
G1 X142.539 Y86.794 E17.33343
G1 X143.242 Y87.36 E17.36345
G1 X143.707 Y87.798 E17.38469
G1 X143.802 Y87.893 E17.38916
G1 X144.412 Y88.559 E17.4192
G1 X144.961 Y89.276 E17.44924
G1 X145.443 Y90.04 E17.47928
G1 X145.857 Y90.843 E17.50933
G1 X146.197 Y91.679 E17.53935
G1 X146.463 Y92.542 E17.56938
G1 X146.651 Y93.425 E17.59941
G1 X146.784 Y94.761 E17.64407
G1 X146.794 Y95.111 E17.65571
G1 X146.8 Y95.61 E17.67231
G1 X146.8 Y99.346 E17.79657
G1 X146.79 Y100.045 E17.81982
G1 X146.737 Y100.946 E17.84984
G1 X146.67 Y101.466 E17.86728
G1 X146.554 Y102.202 E17.89206
G1 X146.317 Y103.582 E17.93863
G1 X145.965 Y106.05 E18.02155
G1 X145.671 Y108.632 E18.10798
G1 X145.456 Y111.151 E18.19207
G1 X145.314 Y113.653 E18.27542
G1 X145.24 Y116.219 E18.3608
G1 X145.24 Y118.755 E18.44515
G1 X145.311 Y121.287 E18.52939
G1 X145.453 Y123.817 E18.61367
G1 X145.671 Y126.388 E18.69949
G1 X145.951 Y128.862 E18.7823
G1 X146.315 Y131.419 E18.86821
G1 X146.649 Y133.409 E18.93532
G1 X146.759 Y134.306 E18.96538
G1 X146.785 Y134.767 E18.98074
G1 X146.794 Y135.128 E18.99275
G1 X146.8 Y135.662 E19.01051
G1 X146.799 Y139.333 E19.13261
G1 X146.789 Y140.039 E19.15609
G1 X146.736 Y140.941 E19.18614
G1 X146.604 Y141.834 E19.21617
G1 X146.393 Y142.713 E19.24623
G1 X146.105 Y143.569 E19.27627
G1 X145.743 Y144.396 E19.3063
G1 X145.309 Y145.188 E19.33634
G1 X144.807 Y145.938 E19.36635
G1 X144.24 Y146.642 E19.39642
G1 X143.802 Y147.107 E19.41766
G1 X143.707 Y147.202 E19.42213
G1 X143.041 Y147.812 E19.45217
G1 X142.324 Y148.361 E19.48221
G1 X141.56 Y148.843 E19.51225
G1 X140.757 Y149.257 E19.5423
G1 X139.921 Y149.597 E19.57232
G1 X139.058 Y149.863 E19.60235
G1 X138.175 Y150.051 E19.63238
G1 X136.839 Y150.184 E19.67704
G1 X136.472 Y150.194 E19.68925
G1 X135.938 Y150.2 E19.70701
G1 X99.062 Y150.199 E20.93351
G1 X98.36 Y150.189 E20.95686
G1 X97.458 Y150.136 E20.98691
G1 X96.565 Y150.004 E21.01694
G1 X95.687 Y149.793 E21.04697
G1 X94.831 Y149.505 E21.07701
G1 X94.003 Y149.143 E21.10707
G1 X93.211 Y148.709 E21.1371
G1 X92.461 Y148.206 E21.16714
G1 X91.758 Y147.64 E21.19716
G1 X91.293 Y147.202 E21.2184
G1 X91.198 Y147.107 E21.22287
G1 X90.588 Y146.441 E21.25291
G1 X90.039 Y145.724 E21.28295
G1 X89.557 Y144.96 E21.31299
G1 X89.143 Y144.157 E21.34304
G1 X88.803 Y143.321 E21.37306
G1 X88.537 Y142.458 E21.40309
G1 X88.349 Y141.575 E21.43312
G1 X88.217 Y140.266 E21.47688
G1 X88.204 Y139.824 E21.49159
G1 X88.2 Y139.39 E21.50602
G1 X88.201 Y135.649 E21.63045
G1 X88.212 Y134.939 E21.65407
G1 X88.266 Y134.037 E21.68412
G1 X88.335 Y133.514 E21.70167
G1 X88.463 Y132.701 E21.72904
G1 X88.695 Y131.342 E21.77489
G1 X89.047 Y128.861 E21.85824
G1 X89.332 Y126.346 E21.94242
G1 X89.547 Y123.797 E22.0275
G1 X89.69 Y121.257 E22.11212
G1 X89.761 Y118.726 E22.19633
G1 X89.759 Y116.191 E22.28065
G1 X89.686 Y113.624 E22.36606
G1 X89.543 Y111.128 E22.44921
G1 X89.325 Y108.576 E22.5344
G1 X89.037 Y106.058 E22.6187
G1 X88.676 Y103.52 E22.70396
G1 X88.351 Y101.587 E22.76916
G1 X88.241 Y100.69 E22.79921
G1 X88.216 Y100.237 E22.8143
G1 X88.206 Y99.872 E22.82645
G1 X88.2 Y99.338 E22.84421
G1 X88.201 Y95.622 E22.96781
G1 X88.211 Y94.952 E22.99009
G1 X88.265 Y94.05 E23.02015
G1 X88.398 Y93.157 E23.05018
G1 X88.609 Y92.279 E23.08021
G1 X88.897 Y91.423 E23.11025
G1 X89.26 Y90.596 E23.14029
G1 X89.695 Y89.804 E23.17034
G1 X90.198 Y89.054 E23.20038
G1 X90.765 Y88.352 E23.23039
G1 X91.236 Y87.853 E23.25321
G1 F2700 E18.25321
G0 F6000 X97.739 Y100.157
G0 X98.192 Y100.61
G0 X110.835 Y104.6
G0 X111.3 Y104.6
G1 F2700 E23.25321
G1 F1200 X123.7 Y104.6 E23.66564
G1 X123.7 Y130.4 E24.52375
G1 X111.3 Y130.4 E24.93618
G1 X111.3 Y104.6 E25.79429
G0 F6000 X110.9 Y104.2
G1 F1200 X124.1 Y104.2 E26.23332
G1 X124.1 Y130.8 E27.11804
G1 X110.9 Y130.8 E27.55707
G1 X110.9 Y104.2 E28.44179
G0 F6000 X110.5 Y103.8
G1 F1200 X124.5 Y103.8 E28.90744
G1 X124.5 Y131.2 E29.81876
G1 X110.5 Y131.2 E30.28441
G1 X110.5 Y103.8 E31.19573
G0 F6000 X110.1 Y103.4
G1 F1200 X124.9 Y103.4 E31.68798
G1 X124.9 Y131.6 E32.62592
G1 X110.1 Y131.6 E33.11817
G1 X110.1 Y103.4 E34.0561
G0 F6000 X109.7 Y103
G1 F1200 X125.3 Y103 E34.57496
G1 X125.3 Y132 E35.53951
G1 X109.7 Y132 E36.05837
G1 X109.7 Y103 E37.02291
G0 F6000 X109.3 Y102.6
G1 F1200 X125.7 Y102.6 E37.56838
G1 X125.7 Y132.4 E38.55953
G1 X109.3 Y132.4 E39.10499
G1 X109.3 Y102.6 E40.09615
G0 F6000 X108.9 Y102.2
G1 F1200 X126.1 Y102.2 E40.66822
G1 X126.1 Y132.8 E41.68598
G1 X108.9 Y132.8 E42.25805
G1 X108.9 Y102.2 E43.27581
G0 F6000 X108.5 Y101.8
G1 F1200 X126.5 Y101.8 E43.8745
G1 X126.5 Y133.2 E44.91887
G1 X108.5 Y133.2 E45.51755
G1 X108.5 Y101.8 E46.56192
G0 F6000 X108.1 Y101.4
G1 F1200 X126.9 Y101.4 E47.18721
G1 X126.9 Y133.6 E48.25818
G1 X108.1 Y133.6 E48.88347
G1 X108.1 Y101.4 E49.95445
G0 F6000 X107.7 Y101
G1 F1200 X127.3 Y101 E50.60635
G1 X127.3 Y134 E51.70393
G1 X107.7 Y134 E52.35583
G1 X107.7 Y101 E53.45342
G1 F2700 E48.45342
G0 F6000 X111.7 Y104.135
G0 X111.7 Y105
;TYPE:SUPPORT
G1 F2700 E53.45342
G1 F1200 X123.3 Y105 E53.83923
G1 X123.3 Y130 E54.67074
G1 X111.7 Y130 E55.05655
G1 X111.7 Y105 E55.88806
G0 F6000 X112.1 Y105.4
G1 F1200 X122.9 Y105.4 E56.24727
G1 X122.9 Y129.6 E57.05216
G1 X112.1 Y129.6 E57.41137
G1 X112.1 Y105.4 E58.21627
G0 F6000 X112.18 Y106
G1 F1200 X122.82 Y106 E58.57015
G0 F6000 X122 Y105.48
G1 F1200 X122 Y129.52 E59.36973
G0 F6000 X122.819 Y128
G1 F1200 X112.179 Y128 E59.72362
G0 F6000 X112.179 Y126
G1 F1200 X122.819 Y126 E60.0775
G0 F6000 X122.819 Y124
G1 F1200 X112.179 Y124 E60.43139
G0 F6000 X112.179 Y122
G1 F1200 X122.819 Y122 E60.78528
G0 F6000 X122.819 Y120
G1 F1200 X112.179 Y120 E61.13917
G0 F6000 X112.18 Y118
G1 F1200 X122.82 Y118 E61.49306
G0 F6000 X122.82 Y116
G1 F1200 X112.18 Y116 E61.84694
G0 F6000 X112.18 Y114
G1 F1200 X122.82 Y114 E62.20083
G0 F6000 X122.82 Y112
G1 F1200 X112.18 Y112 E62.55472
G0 F6000 X112.18 Y110
G1 F1200 X122.82 Y110 E62.90861
G0 F6000 X122.82 Y108
G1 F1200 X112.18 Y108 E63.26249
G1 F2700 E58.26249
G0 F6000 X110.835 Y108
G0 X110.847 Y104.147
G0 X114 Y104.135
G0 X114 Y105.48
G1 F2700 E63.26249
G1 F1200 X114 Y129.52 E64.06207
G0 F6000 X116 Y129.52
G1 F1200 X116 Y105.48 E64.86164
G0 F6000 X118 Y105.48
G1 F1200 X118 Y129.52 E65.66122
G0 F6000 X120 Y129.52
G1 F1200 X120 Y105.48 E66.46079
G1 F2700 E61.46079
;MESH:pen_holder.stl
G0 F6000 X120 Y104.135
G0 X124.153 Y104.147
G0 X124.153 Y130.853
G0 X120 Y134.335
G0 X120 Y135.42
G0 X135.818 Y135.782
G0 X136 Y139.4
;TYPE:WALL-INNER
G1 F2700 E66.46079
G1 F1200 X99 Y139.4 E67.69141
G1 X99 Y135.6 E67.8178
G1 X136 Y135.6 E69.04843
G1 X136 Y139.4 E69.17482
G0 F6000 X136.4 Y139.8
;TYPE:WALL-OUTER
G1 F1200 X98.6 Y139.8 E70.43205
G1 X98.6 Y135.2 E70.58505
G1 X136.4 Y135.2 E71.84228
