;FLAVOR:Marlin
;TIME:1180
;Filament used: 0.744455m
;Layer height: 0.2
;MINX:37.789
;MINY:163.75
;MINZ:0.2
;MAXX:77.389
;MAXY:203.35
;MAXZ:8
;Generated with Cura_SteamEngine 5.3.1
M140 S50
M105
M190 S50
M104 S200
M105
M109 S200
M82 ;absolute extrusion mode
; Ender 3 Custom Start G-code
G92 E0 ; Reset Extruder
G28 ; Home all axes
G1 Z2.0 F3000 ; Move Z Axis up little to prevent scratching of Heat Bed
G1 X0.1 Y20 Z0.3 F5000.0 ; Move to start position
G1 X0.1 Y200.0 Z0.3 F1500.0 E15 ; Draw the first line
G1 X0.4 Y200.0 Z0.3 F5000.0 ; Move to side a little
G1 X0.4 Y20 Z0.3 F1500.0 E30 ; Draw the second line
G92 E0 ; Reset Extruder
G1 Z2.0 F3000 ; Move Z Axis up little to prevent scratching of Heat Bed
G1 X5 Y20 Z0.3 F5000.0 ; Move over to prevent blob squish
G92 E0
G92 E0
G1 F2700 E-5
;LAYER_COUNT:40
;LAYER:0
M107
G0 F6000 X48.905 Y165.703 Z0.2
;TYPE:SKIRT
G1 F2700 E0
G1 F1200 X46.144 Y167.302 E0.10612
G1 X44.898 Y168.763 E0.16998
G1 X44.144 Y169.874 E0.21464
G1 X44.054 Y170.098 E0.22267
G1 X43.408 Y170.368 E0.24596
G1 X42.095 Y171.455 E0.30265
G1 X41.134 Y172.453 E0.34873
G1 X39.58 Y175.146 E0.45215
G1 X39.104 Y177.554 E0.53379
G1 X39.186 Y178.609 E0.56898
G1 X39.096 Y178.734 E0.57411
G1 X38.314 Y180.064 E0.62542
G1 X37.789 Y182.169 E0.69758
G1 X37.789 Y185.292 E0.80145
G1 X38.558 Y187.568 E0.88135
G1 X39.183 Y188.494 E0.91851
G1 X39.086 Y189.274 E0.94465
G1 X39.319 Y190.697 E0.99261
G1 X39.743 Y192.234 E1.04564
G1 X41.342 Y194.994 E1.15174
G1 X42.695 Y196.157 E1.21108
G1 X43.91 Y196.994 E1.26015
G1 X44.131 Y197.084 E1.26808
G1 X44.401 Y197.726 E1.29125
G1 X45.494 Y199.044 E1.3482
G1 X46.492 Y200.005 E1.39428
G1 X49.185 Y201.559 E1.49769
G1 X51.593 Y202.035 E1.57933
G1 X52.653 Y201.952 E1.6147
G1 X52.931 Y202.151 E1.62607
G1 X54.098 Y202.823 E1.67086
G1 X56.208 Y203.35 E1.74319
G1 X59.331 Y203.35 E1.84706
G1 X61.607 Y202.581 E1.92697
G1 X62.533 Y201.956 E1.96413
G1 X63.313 Y202.053 E1.99027
G1 X64.736 Y201.82 E2.03823
G1 X66.273 Y201.396 E2.09126
G1 X69.033 Y199.797 E2.19735
G1 X70.196 Y198.444 E2.25669
G1 X71.033 Y197.229 E2.30576
G1 X71.123 Y197.008 E2.3137
G1 X71.765 Y196.738 E2.33686
G1 X73.083 Y195.645 E2.39381
G1 X74.044 Y194.647 E2.43989
G1 X75.598 Y191.954 E2.54331
G1 X76.074 Y189.546 E2.62495
G1 X75.991 Y188.486 E2.66031
G1 X76.19 Y188.208 E2.67168
G1 X76.862 Y187.041 E2.71647
G1 X77.389 Y184.931 E2.7888
G1 X77.389 Y181.808 E2.89268
G1 X76.618 Y179.527 E2.97276
G1 X75.996 Y178.605 E3.00975
G1 X76.092 Y177.827 E3.03582
G1 X75.859 Y176.403 E3.08382
G1 X75.435 Y174.866 E3.13685
G1 X73.836 Y172.105 E3.24297
G1 X72.375 Y170.859 E3.30683
G1 X71.265 Y170.105 E3.35146
G1 X71.041 Y170.016 E3.35948
G1 X70.77 Y169.366 E3.3829
G1 X69.652 Y168.019 E3.44112
G1 X68.693 Y167.098 E3.48535
G1 X65.993 Y165.54 E3.58903
G1 X63.649 Y165.075 E3.66851
G1 X62.496 Y165.128 E3.7069
G1 X62.247 Y164.949 E3.7171
G1 X61.08 Y164.277 E3.76189
G1 X58.97 Y163.75 E3.83422
G1 X55.847 Y163.75 E3.93809
G1 X53.586 Y164.514 E4.01747
G1 X52.656 Y165.144 E4.05483
G1 X51.865 Y165.046 E4.08134
G1 X50.442 Y165.279 E4.1293
G1 X48.905 Y165.703 E4.18233
G0 F6000 X49.059 Y166.076
G1 F1200 X50.548 Y165.665 E4.23371
G1 X51.873 Y165.45 E4.27836
G1 X52.756 Y165.559 E4.30795
G1 X53.764 Y164.876 E4.34845
G1 X55.913 Y164.15 E4.42389
G1 X58.921 Y164.15 E4.52394
G1 X60.927 Y164.651 E4.59271
G1 X62.047 Y165.296 E4.63569
G1 X62.413 Y165.562 E4.65074
G1 X62.692 Y165.52 E4.66013
G1 X63.622 Y165.477 E4.69109
G1 X65.851 Y165.919 E4.76667
G1 X68.449 Y167.418 E4.86643
G1 X69.344 Y168.275 E4.90765
G1 X70.425 Y169.577 E4.96393
G1 X70.743 Y170.339 E4.99139
G1 X71.04 Y170.436 E5.00179
G1 X72.15 Y171.19 E5.04642
G1 X73.525 Y172.366 E5.10659
G1 X75.062 Y175.02 E5.2086
G1 X75.473 Y176.509 E5.25998
G1 X75.688 Y177.835 E5.30466
G1 X75.58 Y178.705 E5.33381
G1 X76.257 Y179.708 E5.37406
G1 X76.989 Y181.874 E5.45011
G1 X76.989 Y184.882 E5.55015
G1 X76.488 Y186.888 E5.61892
G1 X75.843 Y188.008 E5.66191
G1 X75.581 Y188.37 E5.67677
G1 X75.671 Y189.524 E5.71527
G1 X75.219 Y191.812 E5.79284
G1 X73.724 Y194.403 E5.89233
G1 X72.795 Y195.367 E5.93686
G1 X71.556 Y196.392 E5.99035
G1 X70.8 Y196.709 E6.01761
G1 X70.703 Y197.003 E6.02791
G1 X69.893 Y198.183 E6.07551
G1 X68.773 Y199.486 E6.13266
G1 X66.119 Y201.023 E6.23467
G1 X64.63 Y201.434 E6.28604
G1 X63.305 Y201.649 E6.33069
G1 X62.433 Y201.541 E6.35991
G1 X61.426 Y202.22 E6.40031
G1 X59.265 Y202.95 E6.47617
G1 X56.257 Y202.95 E6.57622
G1 X54.251 Y202.449 E6.64499
G1 X53.131 Y201.804 E6.68798
G1 X52.769 Y201.542 E6.70284
G1 X51.615 Y201.632 E6.74134
G1 X49.327 Y201.18 E6.81891
G1 X46.736 Y199.685 E6.9184
G1 X45.772 Y198.756 E6.96293
G1 X44.747 Y197.517 E7.01641
G1 X44.43 Y196.761 E7.04368
G1 X44.136 Y196.664 E7.05398
G1 X42.956 Y195.854 E7.10158
G1 X41.653 Y194.734 E7.15873
G1 X40.116 Y192.08 E7.26073
G1 X39.705 Y190.591 E7.31211
G1 X39.49 Y189.266 E7.35676
G1 X39.598 Y188.394 E7.38598
G1 X38.919 Y187.387 E7.42638
G1 X38.189 Y185.226 E7.50224
G1 X38.189 Y182.218 E7.60229
G1 X38.688 Y180.218 E7.67085
G1 X39.441 Y178.937 E7.72027
G1 X39.597 Y178.727 E7.72897
G1 X39.507 Y177.576 E7.76737
G1 X39.959 Y175.288 E7.84494
G1 X41.454 Y172.697 E7.94443
G1 X42.383 Y171.733 E7.98896
G1 X43.617 Y170.714 E8.04219
G1 X44.377 Y170.397 E8.06958
G1 X44.475 Y170.099 E8.08001
G1 X45.229 Y168.988 E8.12467
G1 X46.405 Y167.613 E8.18485
G1 X49.059 Y166.076 E8.28685
G0 F6000 X49.215 Y166.447
G1 F1200 X50.612 Y166.06 E8.33507
G1 X51.881 Y165.854 E8.37783
G1 X52.88 Y165.977 E8.41131
G1 X53.015 Y165.864 E8.41716
G1 X53.945 Y165.237 E8.45447
G1 X55.979 Y164.55 E8.52587
G1 X58.872 Y164.55 E8.62209
G1 X60.774 Y165.025 E8.6873
G1 X61.847 Y165.643 E8.72848
G1 X62.311 Y165.983 E8.74761
G1 X62.711 Y165.92 E8.76108
G1 X63.595 Y165.879 E8.79052
G1 X65.706 Y166.298 E8.8621
G1 X68.208 Y167.741 E8.95816
G1 X69.067 Y168.564 E8.99773
G1 X70.079 Y169.786 E9.0505
G1 X70.444 Y170.662 E9.08207
G1 X70.86 Y170.797 E9.09661
G1 X71.925 Y171.521 E9.13944
G1 X73.214 Y172.626 E9.19591
G1 X74.691 Y175.176 E9.29393
G1 X75.078 Y176.573 E9.34214
G1 X75.284 Y177.843 E9.38493
G1 X75.161 Y178.838 E9.41828
G1 X75.298 Y179.003 E9.42541
G1 X75.896 Y179.889 E9.46096
G1 X76.589 Y181.94 E9.53297
G1 X76.589 Y184.833 E9.62919
G1 X76.114 Y186.735 E9.6944
G1 X75.496 Y187.808 E9.73558
G1 X75.17 Y188.254 E9.75395
G1 X75.268 Y189.502 E9.79559
G1 X74.84 Y191.667 E9.86899
G1 X73.4 Y194.164 E9.96486
G1 X72.54 Y195.059 E10.00615
G1 X71.348 Y196.045 E10.0576
G1 X70.477 Y196.41 E10.08901
G1 X70.341 Y196.824 E10.1035
G1 X69.59 Y197.922 E10.14775
G1 X68.513 Y199.175 E10.2027
G1 X65.963 Y200.652 E10.30071
G1 X64.566 Y201.039 E10.34893
G1 X63.297 Y201.245 E10.39169
G1 X62.299 Y201.122 E10.42513
G1 X62.132 Y201.261 E10.43236
G1 X61.245 Y201.859 E10.46794
G1 X59.199 Y202.55 E10.53977
G1 X56.306 Y202.55 E10.63599
G1 X54.404 Y202.075 E10.70119
G1 X53.331 Y201.457 E10.74238
G1 X52.885 Y201.131 E10.76075
G1 X51.637 Y201.229 E10.80239
G1 X49.472 Y200.801 E10.87579
G1 X46.975 Y199.361 E10.97166
G1 X46.08 Y198.501 E11.01294
G1 X45.094 Y197.309 E11.06439
G1 X44.729 Y196.438 E11.0958
G1 X44.315 Y196.302 E11.1103
G1 X43.217 Y195.551 E11.15454
G1 X41.964 Y194.474 E11.2095
G1 X40.487 Y191.924 E11.30751
G1 X40.1 Y190.527 E11.35572
G1 X39.894 Y189.258 E11.39848
G1 X40.017 Y188.26 E11.43193
G1 X39.878 Y188.093 E11.43916
G1 X39.28 Y187.206 E11.47474
G1 X38.589 Y185.16 E11.54656
G1 X38.589 Y182.267 E11.64278
G1 X39.062 Y180.37 E11.70781
G1 X39.762 Y179.176 E11.75384
G1 X40.008 Y178.846 E11.76753
G1 X39.91 Y177.598 E11.80917
G1 X40.338 Y175.433 E11.88257
G1 X41.778 Y172.936 E11.97844
G1 X42.638 Y172.041 E12.01973
G1 X43.826 Y171.06 E12.07097
G1 X44.7 Y170.696 E12.10246
G1 X44.837 Y170.278 E12.11709
G1 X45.56 Y169.213 E12.1599
G1 X46.665 Y167.924 E12.21637
G1 X49.215 Y166.447 E12.31439
G0 F6000 X49.368 Y166.82
G1 F1200 X50.719 Y166.446 E12.36101
G1 X51.889 Y166.258 E12.40042
G1 X53.004 Y166.395 E12.43779
G1 X53.272 Y166.171 E12.44941
G1 X54.124 Y165.599 E12.48354
G1 X56.045 Y164.95 E12.55098
G1 X58.823 Y164.95 E12.64337
G1 X60.621 Y165.399 E12.70501
G1 X61.647 Y165.99 E12.74439
G1 X62.209 Y166.406 E12.76765
G1 X62.73 Y166.32 E12.78521
G1 X63.568 Y166.281 E12.81311
G1 X65.561 Y166.677 E12.8807
G1 X67.967 Y168.064 E12.97307
G1 X68.79 Y168.853 E13.01099
G1 X69.733 Y169.995 E13.06025
G1 X70.146 Y170.986 E13.09595
G1 X70.683 Y171.16 E13.11473
G1 X71.7 Y171.852 E13.15564
G1 X72.903 Y172.886 E13.2084
G1 X74.318 Y175.329 E13.3023
G1 X74.692 Y176.68 E13.34893
G1 X74.88 Y177.851 E13.38837
G1 X74.743 Y178.962 E13.42561
G1 X74.966 Y179.227 E13.43713
G1 X75.535 Y180.07 E13.47095
G1 X76.189 Y182.006 E13.53892
G1 X76.189 Y184.784 E13.63132
G1 X75.74 Y186.582 E13.69295
G1 X75.149 Y187.608 E13.73234
G1 X74.759 Y188.137 E13.7542
G1 X74.865 Y189.48 E13.799
G1 X74.461 Y191.525 E13.86833
G1 X73.078 Y193.922 E13.96038
G1 X72.285 Y194.751 E13.99853
G1 X71.14 Y195.698 E14.04795
G1 X70.154 Y196.111 E14.08351
G1 X69.979 Y196.646 E14.10223
G1 X69.287 Y197.661 E14.14309
G1 X68.253 Y198.864 E14.19585
G1 X65.81 Y200.279 E14.28975
G1 X64.459 Y200.653 E14.33637
G1 X63.289 Y200.841 E14.37579
G1 X62.176 Y200.704 E14.41309
G1 X61.908 Y200.929 E14.42472
G1 X61.064 Y201.498 E14.45858
G1 X59.133 Y202.15 E14.52637
G1 X56.355 Y202.15 E14.61876
G1 X54.557 Y201.701 E14.6804
G1 X53.531 Y201.11 E14.71978
G1 X53.002 Y200.72 E14.74164
G1 X51.659 Y200.826 E14.78645
G1 X49.614 Y200.422 E14.85578
G1 X47.217 Y199.039 E14.94782
G1 X46.388 Y198.246 E14.98598
G1 X45.441 Y197.101 E15.0354
G1 X45.028 Y196.115 E15.07096
G1 X44.493 Y195.94 E15.08968
G1 X43.478 Y195.248 E15.13054
G1 X42.275 Y194.214 E15.1833
G1 X40.86 Y191.771 E15.2772
G1 X40.486 Y190.42 E15.32382
G1 X40.298 Y189.25 E15.36324
G1 X40.435 Y188.137 E15.40053
G1 X40.21 Y187.869 E15.41217
G1 X39.641 Y187.025 E15.44603
G1 X38.989 Y185.094 E15.51382
G1 X38.989 Y182.316 E15.60621
G1 X39.436 Y180.522 E15.6677
G1 X40.083 Y179.415 E15.71035
G1 X40.419 Y178.964 E15.72906
G1 X40.313 Y177.62 E15.7739
G1 X40.717 Y175.575 E15.84323
G1 X42.1 Y173.178 E15.93527
G1 X42.893 Y172.349 E15.97343
G1 X44.035 Y171.406 E16.02269
G1 X45.023 Y170.994 E16.05829
G1 X45.199 Y170.457 E16.07709
G1 X45.891 Y169.438 E16.11805
G1 X46.925 Y168.235 E16.17082
G1 X49.368 Y166.82 E16.26472
G0 F6000 X49.526 Y167.191
G1 F1200 X47.184 Y168.548 E16.35474
G1 X46.222 Y169.663 E16.40372
G1 X45.561 Y170.636 E16.44285
G1 X45.346 Y171.292 E16.46581
G1 X44.244 Y171.752 E16.50552
G1 X43.182 Y172.626 E16.55127
G1 X42.423 Y173.419 E16.58778
G1 X41.096 Y175.72 E16.67613
G1 X40.716 Y177.641 E16.74126
G1 X40.805 Y178.765 E16.77876
G1 X40.857 Y179.047 E16.7883
G1 X40.404 Y179.654 E16.81349
G1 X39.81 Y180.675 E16.85277
G1 X39.389 Y182.365 E16.9107
G1 X39.389 Y185.028 E16.99927
G1 X40.002 Y186.844 E17.06302
G1 X40.542 Y187.645 E17.09515
G1 X40.853 Y188.011 E17.11113
G1 X40.702 Y189.243 E17.15241
G1 X40.881 Y190.357 E17.18994
G1 X41.231 Y191.613 E17.2333
G1 X42.588 Y193.955 E17.32333
G1 X43.703 Y194.917 E17.37231
G1 X44.673 Y195.578 E17.41135
G1 X45.327 Y195.792 E17.43424
G1 X45.788 Y196.892 E17.47391
G1 X46.665 Y197.957 E17.51979
G1 X47.458 Y198.716 E17.5563
G1 X49.759 Y200.043 E17.64465
G1 X51.68 Y200.423 E17.70978
G1 X52.804 Y200.334 E17.74728
G1 X53.084 Y200.282 E17.75675
G1 X53.731 Y200.763 E17.78357
G1 X54.71 Y201.327 E17.82115
G1 X56.404 Y201.75 E17.87922
G1 X59.067 Y201.75 E17.96779
G1 X60.883 Y201.137 E18.03154
G1 X61.684 Y200.597 E18.06367
G1 X62.05 Y200.286 E18.07964
G1 X63.282 Y200.437 E18.12093
G1 X64.396 Y200.258 E18.15845
G1 X65.652 Y199.908 E18.20182
G1 X67.994 Y198.551 E18.29185
G1 X68.956 Y197.436 E18.34083
G1 X69.617 Y196.466 E18.37987
G1 X69.831 Y195.812 E18.40275
G1 X70.931 Y195.351 E18.44242
G1 X71.996 Y194.474 E18.48831
G1 X72.755 Y193.681 E18.52482
G1 X74.082 Y191.38 E18.61317
G1 X74.462 Y189.459 E18.6783
G1 X74.373 Y188.335 E18.7158
G1 X74.321 Y188.055 E18.72527
G1 X74.802 Y187.408 E18.75209
G1 X75.366 Y186.429 E18.78966
G1 X75.789 Y184.735 E18.84774
G1 X75.789 Y182.072 E18.93631
G1 X75.174 Y180.251 E19.00024
G1 X74.634 Y179.451 E19.03234
G1 X74.325 Y179.088 E19.04819
G1 X74.476 Y177.858 E19.08941
G1 X74.297 Y176.743 E19.12697
G1 X73.947 Y175.487 E19.17034
G1 X72.59 Y173.145 E19.26036
G1 X71.475 Y172.183 E19.30934
G1 X70.504 Y171.522 E19.34841
G1 X69.848 Y171.309 E19.37135
G1 X69.387 Y170.204 E19.41117
G1 X68.513 Y169.142 E19.45692
G1 X67.723 Y168.385 E19.49331
G1 X65.419 Y167.056 E19.58178
G1 X63.541 Y166.683 E19.64546
G1 X62.749 Y166.72 E19.67183
G1 X62.107 Y166.829 E19.69349
G1 X61.447 Y166.337 E19.72087
G1 X60.468 Y165.773 E19.75845
G1 X58.774 Y165.35 E19.81652
G1 X56.111 Y165.35 E19.90509
G1 X54.302 Y165.961 E19.9686
G1 X53.495 Y166.503 E20.00093
G1 X53.129 Y166.813 E20.01689
G1 X51.896 Y166.662 E20.0582
G1 X50.782 Y166.841 E20.09573
G1 X49.526 Y167.191 E20.13909
G0 F6000 X49.683 Y167.562
G1 F1200 X50.845 Y167.236 E20.17924
G1 X51.904 Y167.066 E20.21491
G1 X53.256 Y167.231 E20.26021
G1 X53.718 Y166.835 E20.28045
G1 X54.48 Y166.323 E20.31098
G1 X56.177 Y165.75 E20.37056
G1 X58.725 Y165.75 E20.4553
G1 X60.315 Y166.147 E20.50981
G1 X61.247 Y166.684 E20.54559
G1 X62.005 Y167.253 E20.57711
G1 X62.768 Y167.12 E20.60287
G1 X63.514 Y167.085 E20.62771
G1 X65.274 Y167.435 E20.68739
G1 X67.482 Y168.708 E20.77216
G1 X68.236 Y169.431 E20.80691
G1 X69.041 Y170.413 E20.84914
G1 X69.55 Y171.632 E20.89308
G1 X70.325 Y171.884 E20.92018
G1 X71.25 Y172.514 E20.95741
G1 X72.277 Y173.403 E21.00258
G1 X73.576 Y175.644 E21.08874
G1 X73.902 Y176.806 E21.12888
G1 X74.072 Y177.865 E21.16455
G1 X73.907 Y179.215 E21.20979
G1 X74.302 Y179.675 E21.22995
G1 X74.813 Y180.432 E21.26033
G1 X75.389 Y182.138 E21.32022
G1 X75.389 Y184.686 E21.40496
G1 X74.992 Y186.276 E21.45947
G1 X74.455 Y187.208 E21.49525
G1 X73.895 Y187.957 E21.52635
G1 X73.974 Y188.367 E21.54024
G1 X74.059 Y189.438 E21.57597
G1 X73.703 Y191.235 E21.6369
G1 X72.432 Y193.44 E21.72155
G1 X71.707 Y194.197 E21.75642
G1 X70.723 Y195.004 E21.79874
G1 X69.508 Y195.513 E21.84256
G1 X69.255 Y196.286 E21.86961
G1 X68.625 Y197.211 E21.90683
G1 X67.736 Y198.238 E21.95201
G1 X65.495 Y199.537 E22.03816
G1 X64.333 Y199.863 E22.0783
G1 X63.274 Y200.033 E22.11398
G1 X61.923 Y199.868 E22.15925
G1 X61.46 Y200.265 E22.17953
G1 X60.702 Y200.776 E22.20994
G1 X59.001 Y201.35 E22.26965
G1 X56.453 Y201.35 E22.35439
G1 X54.863 Y200.953 E22.4089
G1 X53.931 Y200.416 E22.44468
G1 X53.182 Y199.856 E22.47578
G1 X52.772 Y199.935 E22.48967
G1 X51.701 Y200.02 E22.5254
G1 X49.904 Y199.664 E22.58633
G1 X47.699 Y198.393 E22.67098
G1 X46.942 Y197.668 E22.70584
G1 X46.135 Y196.684 E22.74817
G1 X45.626 Y195.469 E22.79198
G1 X44.853 Y195.216 E22.81904
G1 X43.928 Y194.586 E22.85626
G1 X42.901 Y193.697 E22.90144
G1 X41.602 Y191.456 E22.98759
G1 X41.276 Y190.294 E23.02773
G1 X41.106 Y189.235 E23.0634
G1 X41.271 Y187.884 E23.10867
G1 X40.874 Y187.421 E23.12896
G1 X40.363 Y186.663 E23.15936
G1 X39.789 Y184.962 E23.21907
G1 X39.789 Y182.414 E23.30382
G1 X40.184 Y180.828 E23.35818
G1 X40.75 Y179.855 E23.39562
G1 X41.283 Y179.146 E23.42512
G1 X41.204 Y178.733 E23.43911
G1 X41.119 Y177.662 E23.47484
G1 X41.475 Y175.865 E23.53577
G1 X42.746 Y173.66 E23.62042
G1 X43.471 Y172.903 E23.65528
G1 X44.453 Y172.098 E23.69752
G1 X45.669 Y171.59 E23.74135
G1 X45.923 Y170.815 E23.76848
G1 X46.553 Y169.888 E23.80575
G1 X47.442 Y168.861 E23.85093
G1 X49.683 Y167.562 E23.93708
G0 F6000 X49.841 Y167.933
G1 F1200 X50.953 Y167.621 E23.9755
G1 X51.911 Y167.47 E24.00775
G1 X53.383 Y167.649 E24.05707
G1 X53.941 Y167.167 E24.0816
G1 X54.658 Y166.685 E24.11033
G1 X56.243 Y166.15 E24.16597
G1 X58.676 Y166.15 E24.24689
G1 X60.162 Y166.521 E24.29784
G1 X61.047 Y167.031 E24.33181
G1 X61.904 Y167.677 E24.3675
G1 X62.787 Y167.52 E24.39733
G1 X63.487 Y167.487 E24.42064
G1 X65.132 Y167.814 E24.47643
G1 X67.238 Y169.029 E24.55729
G1 X67.959 Y169.72 E24.59051
G1 X68.695 Y170.622 E24.62923
G1 X69.252 Y171.955 E24.67728
G1 X70.145 Y172.246 E24.70852
G1 X71.025 Y172.845 E24.74392
G1 X71.964 Y173.661 E24.7853
G1 X73.205 Y175.802 E24.86761
G1 X73.517 Y176.914 E24.90602
G1 X73.668 Y177.872 E24.93828
G1 X73.489 Y179.342 E24.98753
G1 X73.97 Y179.899 E25.01201
G1 X74.452 Y180.613 E25.04066
