;FLAVOR:Marlin
;TIME:8304
;Filament used: 4.65712m
;Layer height: 0.2
;MINX:76.7
;MINY:74.7
;MINZ:0.2
;MAXX:147.273
;MAXY:160.3
;MAXZ:20
;Generated with Cura_SteamEngine 5.3.1
M140 S50
M105
M190 S50
M104 S200
M105
M109 S200
M82 ;absolute extrusion mode
; Ender 3 Custom Start G-code
G92 E0 ; Reset Extruder
G28 ; Home all axes
G1 Z2.0 F3000 ; Move Z Axis up little to prevent scratching of Heat Bed
G1 X0.1 Y20 Z0.3 F5000.0 ; Move to start position
G1 X0.1 Y200.0 Z0.3 F1500.0 E15 ; Draw the first line
G1 X0.4 Y200.0 Z0.3 F5000.0 ; Move to side a little
G1 X0.4 Y20 Z0.3 F1500.0 E30 ; Draw the second line
G92 E0 ; Reset Extruder
G1 Z2.0 F3000 ; Move Z Axis up little to prevent scratching of Heat Bed
G1 X5 Y20 Z0.3 F5000.0 ; Move over to prevent blob squish
G92 E0
G92 E0
G1 F2700 E-5
;LAYER_COUNT:100
;LAYER:0
M107
G0 F6000 X78.219 Y77.724 Z0.2
;TYPE:SKIRT
G1 F2700 E0
G1 F1200 X79.794 Y76.25 E0.07175
G1 X81.666 Y75.138 E0.14417
G1 X83.853 Y74.7 E0.21835
G1 X108.354 Y74.7 E1.03326
G1 X110.156 Y75.143 E1.09498
G1 X110.336 Y75.218 E1.10146
G1 X110.583 Y75.11 E1.11043
G1 X112.632 Y74.7 E1.17993
G1 X137.132 Y74.7 E1.9948
G1 X139.028 Y75.166 E2.05974
G1 X141.055 Y76.219 E2.13571
G1 X142.529 Y77.794 E2.20746
G1 X143.641 Y79.666 E2.27988
G1 X144.079 Y81.853 E2.35406
G1 X144.079 Y84.681 E2.44812
G1 X144.391 Y84.955 E2.46194
G1 X145.535 Y86.173 E2.51751
G1 X146.748 Y88.639 E2.60892
G1 X147.273 Y90.838 E2.68411
G1 X147.273 Y94.093 E2.79237
G1 X146.69 Y96.575 E2.87717
G1 X145.68 Y98.531 E2.95039
G1 X144.403 Y100.026 E3.01579
G1 X144.079 Y100.336 E3.0307
G1 X144.079 Y134.673 E4.17275
G1 X144.249 Y134.821 E4.18025
G1 X145.516 Y136.126 E4.24075
G1 X146.752 Y138.668 E4.33476
G1 X147.273 Y140.838 E4.40898
G1 X147.273 Y144.093 E4.51724
G1 X146.69 Y146.575 E4.60204
G1 X145.68 Y148.531 E4.67526
G1 X144.403 Y150.026 E4.74066
G1 X144.079 Y150.336 E4.75557
G1 X144.079 Y153.353 E4.85592
G1 X143.613 Y155.249 E4.92085
G1 X142.56 Y157.276 E4.99683
G1 X140.985 Y158.75 E5.06857
G1 X139.113 Y159.862 E5.14099
G1 X136.926 Y160.3 E5.21518
G1 X112.425 Y160.3 E6.03008
G1 X110.623 Y159.857 E6.0918
G1 X110.443 Y159.782 E6.09829
G1 X110.196 Y159.89 E6.10726
G1 X108.147 Y160.3 E6.17676
G1 X83.647 Y160.3 E6.99163
G1 X81.751 Y159.834 E7.05657
G1 X79.724 Y158.781 E7.13254
G1 X78.25 Y157.206 E7.20429
G1 X77.138 Y155.334 E7.27671
G1 X76.7 Y153.147 E7.35089
G1 X76.7 Y119.647 E8.46511
G1 X77.166 Y117.751 E8.53004
G1 X77.543 Y117.022 E8.55734
G1 X77.139 Y116.342 E8.58365
G1 X76.7 Y114.146 E8.65813
G1 X76.7 Y81.647 E9.73905
G1 X77.166 Y79.751 E9.80399
G1 X78.219 Y77.724 E9.87996
G0 F6000 X78.542 Y77.969
G1 F1200 X80.035 Y76.572 E9.94797
G1 X81.812 Y75.516 E10.01672
G1 X83.891 Y75.1 E10.08724
G1 X108.307 Y75.1 E10.89932
G1 X110.06 Y75.531 E10.95936
G1 X110.342 Y75.664 E10.96973
G1 X110.661 Y75.502 E10.98163
G1 X112.67 Y75.1 E11.04978
G1 X137.086 Y75.1 E11.86185
G1 X138.885 Y75.542 E11.92347
G1 X140.81 Y76.542 E11.99562
G1 X142.207 Y78.035 E12.06362
G1 X143.263 Y79.812 E12.13238
G1 X143.679 Y81.891 E12.20289
G1 X143.679 Y84.862 E12.30171
G1 X144.099 Y85.229 E12.32026
G1 X145.204 Y86.405 E12.37393
G1 X146.369 Y88.775 E12.46177
G1 X146.873 Y90.885 E12.53392
G1 X146.873 Y94.048 E12.63912
G1 X146.312 Y96.435 E12.72068
G1 X145.346 Y98.306 E12.79071
G1 X144.099 Y99.766 E12.85457
G1 X143.679 Y100.164 E12.87382
G1 X143.679 Y134.857 E14.02771
G1 X143.962 Y135.1 E14.04012
G1 X145.184 Y136.359 E14.09848
G1 X146.374 Y138.805 E14.18895
G1 X146.873 Y140.885 E14.26009
G1 X146.873 Y144.048 E14.36529
G1 X146.312 Y146.435 E14.44685
G1 X145.346 Y148.306 E14.51688
G1 X144.099 Y149.766 E14.58074
G1 X143.679 Y150.164 E14.59999
G1 X143.679 Y153.307 E14.70453
G1 X143.237 Y155.106 E14.76614
G1 X142.237 Y157.031 E14.83829
G1 X140.744 Y158.428 E14.90629
G1 X138.967 Y159.484 E14.97505
G1 X136.888 Y159.9 E15.04557
G1 X112.472 Y159.9 E15.85764
G1 X110.719 Y159.469 E15.91769
G1 X110.437 Y159.336 E15.92806
G1 X110.118 Y159.498 E15.93996
G1 X108.109 Y159.9 E16.0081
G1 X83.693 Y159.9 E16.82018
G1 X81.894 Y159.458 E16.88179
G1 X79.969 Y158.458 E16.95394
G1 X78.572 Y156.965 E17.02195
G1 X77.516 Y155.188 E17.0907
G1 X77.1 Y153.109 E17.16122
G1 X77.1 Y119.693 E18.27264
G1 X77.542 Y117.894 E18.33425
G1 X78 Y117.008 E18.36743
G1 X77.517 Y116.196 E18.39885
G1 X77.1 Y114.108 E18.46967
G1 X77.1 Y81.693 E19.5478
G1 X77.542 Y79.894 E19.60941
G1 X78.542 Y77.969 E19.68156
G0 F6000 X78.865 Y78.214
G1 F1200 X80.276 Y76.894 E19.74583
G1 X81.958 Y75.895 E19.81089
G1 X83.93 Y75.5 E19.87778
G1 X108.26 Y75.5 E20.687
G1 X109.964 Y75.919 E20.74537
G1 X110.356 Y76.122 E20.76005
G1 X110.739 Y75.894 E20.77487
G1 X112.708 Y75.5 E20.84166
G1 X137.039 Y75.5 E21.65091
G1 X138.743 Y75.919 E21.70928
G1 X140.565 Y76.865 E21.77756
G1 X141.885 Y78.276 E21.84182
G1 X142.884 Y79.958 E21.90689
G1 X143.279 Y81.93 E21.97378
G1 X143.279 Y85.044 E22.07735
G1 X143.807 Y85.503 E22.10062
G1 X144.871 Y86.636 E22.15232
G1 X145.991 Y88.913 E22.23672
G1 X146.473 Y90.932 E22.30576
G1 X146.473 Y94.004 E22.40793
G1 X145.935 Y96.294 E22.48617
G1 X145.011 Y98.083 E22.55314
G1 X143.824 Y99.476 E22.61401
G1 X143.279 Y99.992 E22.63898
G1 X143.279 Y135.042 E23.80474
G1 X143.675 Y135.379 E23.82204
G1 X144.852 Y136.592 E23.87825
G1 X145.996 Y138.942 E23.96518
G1 X146.473 Y140.932 E24.03325
G1 X146.473 Y144.004 E24.13542
G1 X145.935 Y146.294 E24.21366
G1 X145.011 Y148.083 E24.28063
G1 X143.824 Y149.476 E24.3415
G1 X143.279 Y149.992 E24.36647
G1 X143.279 Y153.26 E24.47516
G1 X142.86 Y154.964 E24.53352
G1 X141.914 Y156.786 E24.6018
G1 X140.503 Y158.106 E24.66607
G1 X138.821 Y159.105 E24.73114
G1 X136.849 Y159.5 E24.79803
G1 X112.519 Y159.5 E25.60725
G1 X110.815 Y159.081 E25.66561
G1 X110.423 Y158.878 E25.68029
G1 X110.04 Y159.106 E25.69512
G1 X108.071 Y159.5 E25.76191
G1 X83.74 Y159.5 E26.57116
G1 X82.036 Y159.081 E26.62952
G1 X80.214 Y158.135 E26.6978
G1 X78.894 Y156.724 E26.76207
G1 X77.895 Y155.042 E26.82713
G1 X77.5 Y153.07 E26.89403
G1 X77.5 Y119.74 E28.00259
G1 X77.919 Y118.036 E28.06095
G1 X78.458 Y116.994 E28.09997
G1 X77.895 Y116.048 E28.13658
G1 X77.5 Y114.07 E28.20367
G1 X77.5 Y81.74 E29.27897
G1 X77.919 Y80.036 E29.33733
G1 X78.865 Y78.214 E29.40562
G0 F6000 X79.188 Y78.459
G1 F1200 X80.517 Y77.216 E29.46614
G1 X82.104 Y76.273 E29.52754
G1 X83.968 Y75.9 E29.59076
G1 X108.214 Y75.9 E30.39719
G1 X109.821 Y76.295 E30.45223
G1 X110.37 Y76.579 E30.47279
G1 X110.885 Y76.273 E30.49271
G1 X112.747 Y75.9 E30.55587
G1 X136.993 Y75.9 E31.3623
G1 X138.6 Y76.295 E31.41734
G1 X140.32 Y77.188 E31.4818
G1 X141.563 Y78.517 E31.54232
G1 X142.506 Y80.104 E31.60372
G1 X142.879 Y81.968 E31.66694
G1 X142.879 Y85.226 E31.77531
G1 X143.515 Y85.777 E31.80329
G1 X144.54 Y86.868 E31.85308
G1 X145.612 Y89.049 E31.93391
G1 X146.073 Y90.979 E31.99991
G1 X146.073 Y93.96 E32.09906
G1 X145.558 Y96.153 E32.17398
G1 X144.677 Y97.858 E32.23781
G1 X143.549 Y99.185 E32.29574
G1 X142.879 Y99.819 E32.32642
G1 X142.879 Y135.227 E33.5041
G1 X143.388 Y135.658 E33.52628
G1 X144.52 Y136.825 E33.58035
G1 X145.618 Y139.079 E33.66375
G1 X146.073 Y140.979 E33.72873
G1 X146.073 Y143.96 E33.82787
G1 X145.558 Y146.153 E33.9028
G1 X144.677 Y147.858 E33.96663
G1 X143.549 Y149.185 E34.02456
G1 X142.879 Y149.819 E34.05524
G1 X142.879 Y153.214 E34.16816
G1 X142.484 Y154.821 E34.2232
G1 X141.591 Y156.541 E34.28765
G1 X140.262 Y157.784 E34.34818
G1 X138.675 Y158.727 E34.40958
G1 X136.811 Y159.1 E34.4728
G1 X112.565 Y159.1 E35.27923
G1 X110.958 Y158.705 E35.33427
G1 X110.409 Y158.421 E35.35483
G1 X109.894 Y158.727 E35.37475
G1 X108.032 Y159.1 E35.43791
G1 X83.786 Y159.1 E36.24434
G1 X82.179 Y158.705 E36.29938
G1 X80.459 Y157.812 E36.36383
G1 X79.216 Y156.483 E36.42436
G1 X78.273 Y154.896 E36.48576
G1 X77.9 Y153.032 E36.54898
G1 X77.9 Y119.786 E37.65475
G1 X78.295 Y118.179 E37.70979
G1 X78.916 Y116.98 E37.7547
G1 X78.273 Y115.9 E37.7965
G1 X77.9 Y114.032 E37.85986
G1 X77.9 Y81.786 E38.93237
G1 X78.295 Y80.179 E38.98741
G1 X79.188 Y78.459 E39.05187
G0 F6000 X79.511 Y78.704
G1 F1200 X80.758 Y77.538 E39.10865
G1 X82.25 Y76.651 E39.16638
G1 X84.006 Y76.3 E39.22594
G1 X108.168 Y76.3 E40.02957
G1 X109.678 Y76.671 E40.08129
G1 X110.383 Y77.036 E40.10769
G1 X111.031 Y76.651 E40.13276
G1 X112.785 Y76.3 E40.19226
G1 X136.947 Y76.3 E40.99589
G1 X138.457 Y76.671 E41.0476
G1 X140.075 Y77.511 E41.10824
G1 X141.241 Y78.758 E41.16502
G1 X142.128 Y80.25 E41.22275
G1 X142.479 Y82.006 E41.28231
G1 X142.479 Y85.409 E41.3955
G1 X143.223 Y86.051 E41.42818
G1 X144.207 Y87.099 E41.47599
G1 X145.234 Y89.187 E41.55339
G1 X145.673 Y91.026 E41.61627
G1 X145.673 Y93.915 E41.71236
G1 X145.18 Y96.013 E41.78404
G1 X144.343 Y97.633 E41.84469
G1 X143.274 Y98.894 E41.89967
G1 X142.479 Y99.646 E41.93607
G1 X142.479 Y135.413 E43.12568
G1 X143.101 Y135.936 E43.15271
G1 X144.187 Y137.056 E43.2046
G1 X145.24 Y139.216 E43.28453
G1 X145.673 Y141.026 E43.34643
G1 X145.673 Y143.915 E43.44251
G1 X145.18 Y146.013 E43.51419
G1 X144.343 Y147.633 E43.57484
G1 X143.274 Y148.894 E43.62983
G1 X142.479 Y149.646 E43.66622
G1 X142.479 Y153.168 E43.78337
G1 X142.108 Y154.678 E43.83508
G1 X141.268 Y156.296 E43.89572
G1 X140.021 Y157.462 E43.9525
G1 X138.529 Y158.349 E44.01023
G1 X136.773 Y158.7 E44.06979
G1 X112.611 Y158.7 E44.87342
G1 X111.101 Y158.329 E44.92514
G1 X110.396 Y157.964 E44.95154
G1 X109.748 Y158.349 E44.97661
G1 X107.994 Y158.7 E45.03611
G1 X83.832 Y158.7 E45.83974
G1 X82.322 Y158.329 E45.89146
G1 X80.704 Y157.489 E45.95209
G1 X79.538 Y156.242 E46.00887
G1 X78.651 Y154.75 E46.0666
G1 X78.3 Y152.994 E46.12616
G1 X78.3 Y119.832 E47.22914
G1 X78.671 Y118.322 E47.28085
G1 X79.374 Y116.966 E47.33165
G1 X78.651 Y115.752 E47.37865
G1 X78.3 Y113.994 E47.43828
G1 X78.3 Y81.832 E48.50799
G1 X78.671 Y80.322 E48.5597
G1 X79.511 Y78.704 E48.62034
G0 F6000 X79.834 Y78.949
G1 F1200 X80.999 Y77.86 E48.67338
G1 X82.396 Y77.029 E48.72744
G1 X84.044 Y76.7 E48.78334
G1 X108.121 Y76.7 E49.58414
G1 X109.536 Y77.048 E49.63261
G1 X110.396 Y77.493 E49.66481
G1 X111.177 Y77.029 E49.69503
G1 X112.823 Y76.7 E49.75086
G1 X136.9 Y76.7 E50.55166
G1 X138.315 Y77.048 E50.60013
G1 X139.83 Y77.834 E50.65689
G1 X140.919 Y78.999 E50.70994
G1 X141.75 Y80.396 E50.764
G1 X142.079 Y82.044 E50.81989
G1 X142.079 Y85.593 E50.93793
G1 X142.931 Y86.325 E50.97529
G1 X143.876 Y87.331 E51.0212
G1 X144.855 Y89.323 E51.09502
G1 X145.273 Y91.073 E51.15487
G1 X145.273 Y93.871 E51.24793
G1 X144.803 Y95.872 E51.31629
G1 X144.009 Y97.408 E51.3738
G1 X142.969 Y98.635 E51.4273
G1 X142.079 Y99.474 E51.46798
G1 X142.079 Y135.599 E52.6695
G1 X142.843 Y136.242 E52.70272
G1 X143.856 Y137.289 E52.75117
G1 X144.861 Y139.349 E52.82741
G1 X145.273 Y141.073 E52.88636
G1 X145.273 Y143.871 E52.97942
G1 X144.803 Y145.872 E53.04779
G1 X144.009 Y147.408 E53.1053
G1 X142.969 Y148.635 E53.15879
G1 X142.079 Y149.474 E53.19948
G1 X142.079 Y153.121 E53.32078
G1 X141.731 Y154.536 E53.36924
G1 X140.945 Y156.051 E53.42601
G1 X139.78 Y157.14 E53.47905
G1 X138.383 Y157.971 E53.53311
G1 X136.735 Y158.3 E53.58901
G1 X112.658 Y158.3 E54.38981
G1 X111.243 Y157.952 E54.43828
G1 X110.383 Y157.507 E54.47048
G1 X109.602 Y157.971 E54.5007
G1 X107.956 Y158.3 E54.55653
G1 X83.879 Y158.3 E55.35733
G1 X82.464 Y157.952 E55.4058
G1 X80.949 Y157.166 E55.46256
G1 X79.86 Y156.001 E55.5156
G1 X79.029 Y154.604 E55.56967
G1 X78.7 Y152.956 E55.62556
G1 X78.7 Y119.879 E56.72571
G1 X79.048 Y118.464 E56.77417
G1 X79.832 Y116.952 E56.83082
G1 X79.029 Y115.604 E56.88301
G1 X78.7 Y113.956 E56.9389
G1 X78.7 Y81.879 E58.00579
G1 X79.048 Y80.464 E58.05425
G1 X79.834 Y78.949 E58.11102
G0 F6000 X80.157 Y79.194
G1 F1200 X81.238 Y78.184 E58.16022
G1 X82.544 Y77.407 E58.21077
G1 X84.082 Y77.1 E58.26293
G1 X108.075 Y77.1 E59.06094
G1 X109.393 Y77.424 E59.10608
G1 X110.41 Y77.95 E59.14417
G1 X111.323 Y77.407 E59.1795
G1 X112.861 Y77.1 E59.23166
G1 X136.854 Y77.1 E60.02967
G1 X138.172 Y77.424 E60.07481
G1 X139.585 Y78.157 E60.12776
G1 X140.595 Y79.238 E60.17696
G1 X141.372 Y80.544 E60.22751
G1 X141.679 Y82.082 E60.27967
G1 X141.679 Y85.777 E60.40257
G1 X142.67 Y86.628 E60.44601
G1 X143.543 Y87.561 E60.48851
G1 X144.476 Y89.459 E60.55885
G1 X144.873 Y91.12 E60.61565
G1 X144.873 Y93.826 E60.70566
G1 X144.425 Y95.732 E60.77078
G1 X143.675 Y97.183 E60.8251
G1 X142.694 Y98.344 E60.87566
G1 X141.817 Y99.173 E60.9158
G1 X141.679 Y99.264 E60.92129
G1 X141.679 Y135.786 E62.13602
G1 X142.555 Y136.52 E62.17403
G1 X143.526 Y137.524 E62.22049
G1 X144.482 Y139.482 E62.29296
G1 X144.873 Y141.12 E62.34897
G1 X144.873 Y143.826 E62.43897
G1 X144.425 Y145.732 E62.50409
G1 X143.675 Y147.183 E62.55842
G1 X142.694 Y148.344 E62.60897
G1 X141.816 Y149.174 E62.64916
G1 X141.679 Y149.266 E62.65465
G1 X141.679 Y153.075 E62.78133
G1 X141.355 Y154.393 E62.82648
G1 X140.622 Y155.806 E62.87942
G1 X139.541 Y156.816 E62.92863
G1 X138.235 Y157.593 E62.97917
G1 X136.697 Y157.9 E63.03133
G1 X112.704 Y157.9 E63.82934
G1 X111.386 Y157.576 E63.87449
G1 X110.369 Y157.05 E63.91257
G1 X109.456 Y157.593 E63.9479
G1 X107.918 Y157.9 E64.00006
G1 X83.925 Y157.9 E64.79807
G1 X82.607 Y157.576 E64.84321
G1 X81.194 Y156.843 E64.89616
G1 X80.184 Y155.762 E64.94536
G1 X79.407 Y154.456 E64.99591
G1 X79.1 Y152.918 E65.04807
G1 X79.1 Y119.925 E66.14542
G1 X79.424 Y118.607 E66.19056
G1 X80.126 Y117.253 E66.24129
G1 X80.386 Y116.979 E66.25385
G1 X80.186 Y116.765 E66.2636
G1 X79.407 Y115.456 E66.31426
G1 X79.1 Y113.918 E66.36642
G1 X79.1 Y81.925 E67.43052
G1 X79.424 Y80.607 E67.47566
G1 X80.157 Y79.194 E67.5286
G0 F6000 X80.48 Y79.439
G1 F1200 X81.477 Y78.508 E67.57397
G1 X82.692 Y77.785 E67.621
G1 X84.12 Y77.5 E67.66943
G1 X108.029 Y77.5 E68.46465
G1 X109.25 Y77.8 E68.50646
G1 X110.424 Y78.408 E68.55044
G1 X111.471 Y77.785 E68.59096
G1 X112.899 Y77.5 E68.63939
G1 X136.808 Y77.5 E69.43461
G1 X138.029 Y77.8 E69.47643
G1 X139.34 Y78.48 E69.52555
G1 X140.271 Y79.477 E69.57092
G1 X140.994 Y80.692 E69.61794
G1 X141.279 Y82.12 E69.66637
G1 X141.279 Y85.962 E69.79416
G1 X142.409 Y86.932 E69.84369
G1 X143.211 Y87.793 E69.88283
G1 X144.097 Y89.595 E69.94961
G1 X144.473 Y91.167 E70.00337
G1 X144.473 Y93.782 E70.09035
G1 X144.048 Y95.591 E70.15215
G1 X143.341 Y96.958 E70.20334
G1 X142.419 Y98.053 E70.25095
G1 X141.542 Y98.882 E70.29109
G1 X141.279 Y99.034 E70.30119
G1 X141.279 Y135.973 E71.52979
G1 X142.267 Y136.798 E71.5726
G1 X143.195 Y137.758 E71.61701
G1 X144.103 Y139.617 E71.68582
G1 X144.473 Y141.167 E71.73882
G1 X144.473 Y143.782 E71.8258
G1 X144.048 Y145.591 E71.88761
G1 X143.341 Y146.958 E71.93879
G1 X142.419 Y148.053 E71.9864
G1 X141.541 Y148.883 E72.02659
G1 X141.279 Y149.034 E72.03665
G1 X141.279 Y153.029 E72.16952
G1 X140.979 Y154.25 E72.21134
G1 X140.299 Y155.561 E72.26046
G1 X139.302 Y156.492 E72.30583
G1 X138.087 Y157.215 E72.35286
G1 X136.659 Y157.5 E72.40129
G1 X112.75 Y157.5 E73.1965
G1 X111.529 Y157.2 E73.23832
G1 X110.355 Y156.592 E73.2823
G1 X109.308 Y157.215 E73.32282
G1 X107.88 Y157.5 E73.37125
G1 X83.971 Y157.5 E74.16647
G1 X82.75 Y157.2 E74.20829
G1 X81.439 Y156.52 E74.25741
G1 X80.508 Y155.523 E74.30278
G1 X79.785 Y154.308 E74.3498
G1 X79.5 Y152.88 E74.39823
G1 X79.5 Y119.971 E75.49279
G1 X79.8 Y118.75 E75.53461
G1 X80.481 Y117.437 E75.5838
G1 X80.951 Y116.998 E75.60519
G1 X80.508 Y116.523 E75.6268
G1 X79.785 Y115.308 E75.67382
G1 X79.5 Y113.88 E75.72225
G1 X79.5 Y81.971 E76.78355
G1 X79.8 Y80.75 E76.82537
G1 X80.48 Y79.439 E76.87449
G0 F6000 X80.803 Y79.684
G1 F1200 X81.716 Y78.832 E76.91603
G1 X82.84 Y78.163 E76.95953
G1 X84.158 Y77.9 E77.00423
G1 X107.983 Y77.9 E77.79666
G1 X109.107 Y78.176 E77.83515
G1 X110.253 Y78.77 E77.87808
G1 X110.414 Y78.909 E77.88516
G1 X110.535 Y78.808 E77.8904
G1 X111.619 Y78.163 E77.93235
G1 X112.937 Y77.9 E77.97705
G1 X136.762 Y77.9 E78.76948
G1 X137.886 Y78.176 E78.80797
G1 X139.095 Y78.803 E78.85327
G1 X139.947 Y79.716 E78.8948
G1 X140.616 Y80.84 E78.93831
G1 X140.879 Y82.158 E78.98301
G1 X140.879 Y86.146 E79.11565
G1 X142.116 Y87.205 E79.16981
G1 X142.878 Y88.023 E79.20699
G1 X143.719 Y89.733 E79.27038
G1 X144.073 Y91.214 E79.32102
G1 X144.073 Y93.738 E79.40497
G1 X143.671 Y95.45 E79.46346
G1 X143.006 Y96.736 E79.51161
G1 X142.144 Y97.762 E79.55618
