;FLAVOR:Marlin
;TIME:8292
;Filament used: 5.66799m
;Layer height: 0.2
;MINX:86.5
;MINY:71.5
;MINZ:0.2
;MAXX:148.5
;MAXY:163.5
;MAXZ:28
;Generated with Cura_SteamEngine 4.13.1
M140 S60
M105
M190 S60
M104 S200
M105
M109 S200
M82 ;absolute extrusion mode
; Ender 3 Custom Start G-code
G92 E0 ; Reset Extruder
G28 ; Home all axes
G1 Z2.0 F3000 ; Move Z Axis up little to prevent scratching of Heat Bed
G1 X0.1 Y20 Z0.3 F5000.0 ; Move to start position
G1 X0.1 Y200.0 Z0.3 F1500.0 E15 ; Draw the first line
G1 X0.4 Y200.0 Z0.3 F5000.0 ; Move to side a little
G1 X0.4 Y20 Z0.3 F1500.0 E30 ; Draw the second line
G92 E0 ; Reset Extruder
G1 Z2.0 F3000 ; Move Z Axis up little to prevent scratching of Heat Bed
G1 X5 Y20 Z0.3 F5000.0 ; Move over to prevent blob squish
G92 E0
G92 E0
G1 F2700 E-5
;LAYER_COUNT:140
;LAYER:0
M107
G0 F6000 X89.072 Y76.448 Z0.2
;TYPE:SKIRT
G1 F2700 E0
G1 F1200 X89.449 Y76.02 E0.01897
G1 X89.592 Y75.866 E0.02596
G1 X89.822 Y75.626 E0.03702
G1 X90.187 Y75.256 E0.0543
G1 X90.371 Y75.074 E0.06291
G1 X90.858 Y74.603 E0.08544
G1 X91.559 Y73.98 E0.11664
G1 X92.311 Y73.42 E0.14782
G1 X93.108 Y72.925 E0.17903
G1 X93.944 Y72.5 E0.21022
G1 X94.813 Y72.148 E0.2414
G1 X95.709 Y71.871 E0.2726
G1 X96.626 Y71.672 E0.30381
G1 X97.556 Y71.551 E0.335
G1 X98.134 Y71.516 E0.35426
G1 X98.519 Y71.506 E0.36707
G1 X99.062 Y71.5 E0.38513
G1 X135.793 Y71.5 E1.60681
G1 X136.651 Y71.511 E1.63535
G1 X137.587 Y71.564 E1.66653
G1 X138.516 Y71.697 E1.69774
G1 X139.429 Y71.909 E1.72892
G1 X140.322 Y72.197 E1.76012
G1 X141.186 Y72.561 E1.79131
G1 X142.017 Y72.997 E1.82252
G1 X142.807 Y73.502 E1.8537
G1 X143.551 Y74.072 E1.88488
G1 X143.948 Y74.421 E1.90246
G1 X144.101 Y74.562 E1.90938
G1 X144.329 Y74.777 E1.9198
G1 X144.493 Y74.937 E1.92742
G1 X144.907 Y75.353 E1.94694
G1 X145.393 Y75.855 E1.97018
G1 X146.016 Y76.556 E2.00137
G1 X146.577 Y77.307 E2.03255
G1 X147.072 Y78.104 E2.06376
G1 X147.498 Y78.94 E2.09496
G1 X147.85 Y79.809 E2.12615
G1 X148.127 Y80.705 E2.15734
G1 X148.327 Y81.621 E2.18853
G1 X148.448 Y82.551 E2.21972
G1 X148.484 Y83.135 E2.23918
G1 X148.494 Y83.52 E2.25199
G1 X148.5 Y84.063 E2.27005
G1 X148.499 Y150.95 E4.49472
G1 X148.489 Y151.652 E4.51807
G1 X148.436 Y152.588 E4.54925
G1 X148.303 Y153.516 E4.58043
G1 X148.091 Y154.43 E4.61164
G1 X147.803 Y155.323 E4.64285
G1 X147.439 Y156.187 E4.67403
G1 X147.003 Y157.018 E4.70524
G1 X146.498 Y157.808 E4.73643
G1 X145.928 Y158.552 E4.7676
G1 X145.555 Y158.976 E4.78638
G1 X145.414 Y159.128 E4.79328
G1 X145.215 Y159.337 E4.80288
G1 X145.04 Y159.516 E4.8112
G1 X144.646 Y159.908 E4.82969
G1 X144.152 Y160.387 E4.85258
G1 X143.452 Y161.011 E4.88377
G1 X142.701 Y161.572 E4.91494
G1 X141.904 Y162.068 E4.94617
G1 X141.069 Y162.494 E4.97734
G1 X140.2 Y162.847 E5.00854
G1 X139.304 Y163.125 E5.03974
G1 X138.388 Y163.326 E5.07093
G1 X137.458 Y163.448 E5.10213
G1 X136.866 Y163.484 E5.12186
G1 X136.481 Y163.494 E5.13467
G1 X135.938 Y163.5 E5.15273
G1 X99.05 Y163.499 E6.37963
G1 X98.348 Y163.489 E6.40298
G1 X97.412 Y163.436 E6.43416
G1 X96.484 Y163.303 E6.46534
G1 X95.57 Y163.091 E6.49655
G1 X94.677 Y162.803 E6.52776
G1 X93.813 Y162.439 E6.55894
G1 X92.982 Y162.003 E6.59015
G1 X92.192 Y161.498 E6.62134
G1 X91.448 Y160.928 E6.65251
G1 X91.024 Y160.555 E6.67129
G1 X90.872 Y160.414 E6.67819
G1 X90.627 Y160.179 E6.68948
G1 X90.248 Y159.805 E6.70719
G1 X90.065 Y159.62 E6.71584
G1 X89.601 Y159.14 E6.73805
G1 X88.979 Y158.439 E6.76922
G1 X88.418 Y157.687 E6.80042
G1 X87.924 Y156.89 E6.83161
G1 X87.499 Y156.054 E6.8628
G1 X87.147 Y155.184 E6.89402
G1 X86.871 Y154.288 E6.9252
G1 X86.671 Y153.372 E6.95639
G1 X86.551 Y152.442 E6.98757
G1 X86.516 Y151.866 E7.00677
G1 X86.506 Y151.481 E7.01958
G1 X86.5 Y150.938 E7.03764
G1 X86.501 Y84.05 E9.26234
G1 X86.511 Y83.348 E9.28569
G1 X86.564 Y82.412 E9.31687
G1 X86.697 Y81.484 E9.34805
G1 X86.909 Y80.57 E9.37926
G1 X87.197 Y79.677 E9.41047
G1 X87.561 Y78.813 E9.44165
G1 X87.997 Y77.982 E9.47286
G1 X88.502 Y77.192 E9.50405
G1 X89.072 Y76.448 E9.53522
G0 F6000 X89.742 Y76.292
G1 F1200 X89.885 Y76.138 E9.54221
G1 X90.107 Y75.907 E9.55287
G1 X90.472 Y75.537 E9.57016
G1 X90.649 Y75.362 E9.57843
G1 X91.136 Y74.891 E9.60097
G1 X91.825 Y74.28 E9.6316
G1 X92.564 Y73.731 E9.66222
G1 X93.348 Y73.249 E9.69283
G1 X94.171 Y72.836 E9.72345
G1 X95.027 Y72.497 E9.75407
G1 X95.909 Y72.233 E9.7847
G1 X96.811 Y72.046 E9.81533
G1 X98.147 Y71.916 E9.85998
G1 X98.523 Y71.906 E9.87249
G1 X99.062 Y71.9 E9.89042
G1 X135.793 Y71.9 E11.1121
G1 X136.645 Y71.911 E11.14044
G1 X137.564 Y71.964 E11.17105
G1 X138.475 Y72.097 E11.20167
G1 X139.371 Y72.308 E11.23229
G1 X140.246 Y72.596 E11.26293
G1 X141.092 Y72.959 E11.29355
G1 X141.903 Y73.394 E11.32416
G1 X142.674 Y73.898 E11.35479
G1 X143.677 Y74.715 E11.39782
G1 X143.83 Y74.856 E11.40474
G1 X144.049 Y75.064 E11.41479
G1 X144.306 Y75.316 E11.42676
G1 X144.62 Y75.631 E11.44155
G1 X145.106 Y76.133 E11.46479
G1 X145.717 Y76.822 E11.49542
G1 X146.266 Y77.561 E11.52604
G1 X146.749 Y78.345 E11.55667
G1 X147.161 Y79.167 E11.58725
G1 X147.501 Y80.023 E11.61788
G1 X147.766 Y80.905 E11.64851
G1 X147.953 Y81.806 E11.67912
G1 X148.084 Y83.148 E11.72397
G1 X148.094 Y83.524 E11.73648
G1 X148.1 Y84.063 E11.7544
G1 X148.099 Y150.944 E13.97888
G1 X148.089 Y151.646 E14.00223
G1 X148.036 Y152.565 E14.03284
G1 X147.903 Y153.476 E14.06346
G1 X147.692 Y154.372 E14.09408
G1 X147.404 Y155.247 E14.12472
G1 X147.041 Y156.093 E14.15534
G1 X146.606 Y156.904 E14.18595
G1 X146.102 Y157.675 E14.21658
G1 X145.261 Y158.704 E14.26079
G1 X145.12 Y158.856 E14.26768
G1 X144.929 Y159.057 E14.2769
G1 X144.754 Y159.236 E14.28523
G1 X144.368 Y159.621 E14.30336
G1 X143.874 Y160.1 E14.32625
G1 X143.186 Y160.712 E14.35687
G1 X142.447 Y161.261 E14.38749
G1 X141.664 Y161.745 E14.41811
G1 X140.841 Y162.158 E14.44874
G1 X139.986 Y162.499 E14.47935
G1 X139.104 Y162.764 E14.50998
G1 X138.203 Y162.952 E14.5406
G1 X136.853 Y163.084 E14.58571
G1 X136.477 Y163.094 E14.59822
G1 X135.938 Y163.1 E14.61615
G1 X99.056 Y163.099 E15.84285
G1 X98.354 Y163.089 E15.8662
G1 X97.435 Y163.036 E15.89682
G1 X96.524 Y162.903 E15.92744
G1 X95.628 Y162.692 E15.95806
G1 X94.753 Y162.404 E15.98869
G1 X93.907 Y162.041 E16.01931
G1 X93.096 Y161.606 E16.04992
G1 X92.325 Y161.102 E16.08056
G1 X91.296 Y160.261 E16.12476
G1 X91.144 Y160.12 E16.13166
G1 X90.908 Y159.894 E16.14252
G1 X90.529 Y159.52 E16.16023
G1 X90.353 Y159.342 E16.16856
G1 X89.889 Y158.862 E16.19076
G1 X89.278 Y158.173 E16.22139
G1 X88.73 Y157.434 E16.25199
G1 X88.248 Y156.649 E16.28263
G1 X87.835 Y155.826 E16.31326
G1 X87.496 Y154.97 E16.34388
G1 X87.232 Y154.088 E16.3745
G1 X87.046 Y153.187 E16.4051
G1 X86.916 Y151.853 E16.44968
G1 X86.906 Y151.477 E16.46219
G1 X86.9 Y150.938 E16.48012
G1 X86.901 Y84.056 E18.70462
G1 X86.911 Y83.354 E18.72797
G1 X86.964 Y82.435 E18.75859
G1 X87.097 Y81.524 E18.78921
G1 X87.308 Y80.628 E18.81983
G1 X87.596 Y79.753 E18.85047
G1 X87.959 Y78.907 E18.88108
G1 X88.394 Y78.096 E18.91169
G1 X88.898 Y77.325 E18.94233
G1 X89.742 Y76.292 E18.9867
G0 F6000 X90.036 Y76.564
G1 F1200 X90.179 Y76.41 E18.99369
G1 X90.392 Y76.188 E19.00392
G1 X90.757 Y75.818 E19.02121
G1 X90.927 Y75.649 E19.02918
G1 X91.414 Y75.178 E19.05171
G1 X92.09 Y74.58 E19.08173
G1 X92.817 Y74.043 E19.11179
G1 X93.588 Y73.573 E19.14183
G1 X94.398 Y73.173 E19.17187
G1 X95.24 Y72.847 E19.2019
G1 X96.107 Y72.596 E19.23192
G1 X96.994 Y72.423 E19.26198
G1 X98.161 Y72.316 E19.30096
G1 X98.528 Y72.306 E19.31317
G1 X99.062 Y72.3 E19.33093
G1 X135.793 Y72.3 E20.55261
G1 X136.639 Y72.311 E20.58075
G1 X137.541 Y72.364 E20.6108
G1 X138.434 Y72.496 E20.64083
G1 X139.313 Y72.707 E20.67089
G1 X140.169 Y72.995 E20.70093
G1 X140.996 Y73.357 E20.73096
G1 X141.788 Y73.791 E20.761
G1 X142.538 Y74.294 E20.79103
G1 X143.406 Y75.009 E20.82843
G1 X143.559 Y75.15 E20.83536
G1 X143.77 Y75.35 E20.84502
G1 X143.934 Y75.51 E20.85265
G1 X144.332 Y75.909 E20.87139
G1 X144.818 Y76.411 E20.89463
G1 X145.417 Y77.087 E20.92467
G1 X145.954 Y77.814 E20.95473
G1 X146.424 Y78.585 E20.98476
G1 X146.824 Y79.394 E21.01478
G1 X147.152 Y80.236 E21.04484
G1 X147.403 Y81.103 E21.07486
G1 X147.577 Y81.99 E21.10492
G1 X147.684 Y83.162 E21.14406
G1 X147.694 Y83.529 E21.15627
G1 X147.7 Y84.063 E21.17404
G1 X147.699 Y150.938 E23.39831
G1 X147.689 Y151.64 E23.42166
G1 X147.636 Y152.542 E23.45171
G1 X147.504 Y153.435 E23.48173
G1 X147.293 Y154.313 E23.51177
G1 X147.005 Y155.169 E23.54181
G1 X146.643 Y155.997 E23.57186
G1 X146.209 Y156.789 E23.6019
G1 X145.706 Y157.539 E23.63194
G1 X144.968 Y158.432 E23.67047
G1 X144.643 Y158.778 E23.68626
G1 X144.386 Y159.038 E23.69842
G1 X144.089 Y159.334 E23.71236
G1 X143.595 Y159.813 E23.73525
G1 X142.92 Y160.412 E23.76527
G1 X142.194 Y160.949 E23.7953
G1 X141.423 Y161.42 E23.82535
G1 X140.614 Y161.821 E23.85538
G1 X139.773 Y162.149 E23.88541
G1 X138.905 Y162.401 E23.91547
G1 X138.019 Y162.575 E23.9455
G1 X136.839 Y162.684 E23.98491
G1 X136.472 Y162.694 E23.99712
G1 X135.938 Y162.7 E24.01489
G1 X99.062 Y162.699 E25.24139
G1 X98.36 Y162.689 E25.26474
G1 X97.458 Y162.636 E25.29479
G1 X96.565 Y162.504 E25.32481
G1 X95.687 Y162.293 E25.35485
G1 X94.831 Y162.005 E25.38489
G1 X94.003 Y161.643 E25.41494
G1 X93.211 Y161.209 E25.44498
G1 X92.461 Y160.706 E25.47502
G1 X91.568 Y159.968 E25.51355
G1 X91.416 Y159.827 E25.52044
G1 X91.189 Y159.609 E25.53091
G1 X90.81 Y159.235 E25.54862
G1 X90.64 Y159.064 E25.55664
G1 X90.176 Y158.584 E25.57885
G1 X89.578 Y157.908 E25.60886
G1 X89.042 Y157.181 E25.63891
G1 X88.572 Y156.41 E25.66894
G1 X88.172 Y155.6 E25.69898
G1 X87.846 Y154.758 E25.72902
G1 X87.595 Y153.89 E25.75907
G1 X87.422 Y153.004 E25.78909
G1 X87.316 Y151.839 E25.828
G1 X87.306 Y151.472 E25.84021
G1 X87.3 Y150.938 E25.85797
G1 X87.301 Y84.062 E28.08228
G1 X87.311 Y83.36 E28.10563
G1 X87.364 Y82.458 E28.13568
G1 X87.496 Y81.565 E28.16571
G1 X87.707 Y80.687 E28.19574
G1 X87.995 Y79.831 E28.22578
G1 X88.357 Y79.003 E28.25584
G1 X88.791 Y78.211 E28.28587
G1 X89.294 Y77.461 E28.31591
G1 X90.036 Y76.564 E28.35463
G1 F2700 E23.35463
;MESH:pen_guide.stl
G0 F6000 X116.068 Y92.577
G0 X114.611 Y92.645
G0 X115.475 Y94.033
G0 X116.017 Y94.563
G0 X116.563 Y94.841
G0 X117.837 Y95.181
;TYPE:WALL-INNER
G1 F2700 E28.35463
G1 F1200 X118.231 Y95.101 E28.368
G1 X118.611 Y94.961 E28.38147
G1 X118.965 Y94.769 E28.39486
G1 X119.288 Y94.526 E28.40831
G1 X119.57 Y94.236 E28.42176
G1 X119.805 Y93.908 E28.43518
G1 X119.991 Y93.546 E28.44872
G1 X120.118 Y93.163 E28.46214
G1 X120.188 Y92.768 E28.47548
G1 X120.198 Y92.366 E28.48886
G1 X120.147 Y91.96 E28.50247
G1 X119.994 Y91.46 E28.51986
G1 X119.805 Y91.092 E28.53362
G1 X119.57 Y90.764 E28.54704
G1 X119.288 Y90.474 E28.56049
G1 X118.965 Y90.231 E28.57393
G1 X118.611 Y90.039 E28.58733
G1 X118.231 Y89.899 E28.6008
G1 X117.84 Y89.82 E28.61407
G1 X117.562 Y89.8 E28.62334
G1 X117.163 Y89.819 E28.63662
G1 X116.769 Y89.899 E28.64999
G1 X116.389 Y90.039 E28.66346
G1 X116.035 Y90.231 E28.67686
G1 X115.711 Y90.475 E28.69035
G1 X115.429 Y90.765 E28.7038
G1 X115.194 Y91.092 E28.71719
G1 X115.01 Y91.453 E28.73067
G1 X114.882 Y91.837 E28.74413
G1 X114.812 Y92.232 E28.75748
G1 X114.802 Y92.635 E28.77088
G1 X114.853 Y93.036 E28.78433
G1 X114.962 Y93.424 E28.79773
G1 X115.129 Y93.794 E28.81124
G1 X115.347 Y94.131 E28.82458
G1 X115.615 Y94.433 E28.83801
G1 X115.922 Y94.693 E28.8514
G1 X116.269 Y94.904 E28.8649
G1 X116.64 Y95.06 E28.87829
G1 X117.03 Y95.16 E28.89168
G1 X117.432 Y95.2 E28.90512
G1 X117.837 Y95.181 E28.9186
G0 F6000 X117.788 Y94.783
;TYPE:WALL-OUTER
G1 F1200 X118.122 Y94.715 E28.92994
G1 X118.446 Y94.596 E28.94142
G1 X118.748 Y94.432 E28.95285
G1 X119.023 Y94.225 E28.9643
G1 X119.262 Y93.979 E28.9757
G1 X119.463 Y93.699 E28.98717
G1 X119.621 Y93.391 E28.99868
G1 X119.729 Y93.065 E29.0101
G1 X119.789 Y92.728 E29.02149
G1 X119.797 Y92.386 E29.03287
G1 X119.754 Y92.044 E29.04433
G1 X119.622 Y91.611 E29.05939
G1 X119.463 Y91.301 E29.07098
G1 X119.262 Y91.021 E29.08244
G1 X119.023 Y90.775 E29.09385
G1 X118.748 Y90.568 E29.10529
G1 X118.446 Y90.404 E29.11672
G1 X118.122 Y90.285 E29.12821
G1 X117.786 Y90.217 E29.13961
G1 X117.557 Y90.201 E29.14724
G1 X117.212 Y90.217 E29.15873
G1 X116.878 Y90.285 E29.17007
G1 X116.554 Y90.404 E29.18155
G1 X116.252 Y90.568 E29.19298
G1 X115.976 Y90.776 E29.20447
G1 X115.737 Y91.022 E29.21588
G1 X115.537 Y91.301 E29.2273
G1 X115.38 Y91.608 E29.23876
G1 X115.271 Y91.936 E29.25026
G1 X115.211 Y92.272 E29.26161
G1 X115.203 Y92.615 E29.27302
G1 X115.246 Y92.956 E29.28446
G1 X115.339 Y93.287 E29.29589
G1 X115.481 Y93.602 E29.30738
G1 X115.666 Y93.888 E29.31871
G1 X115.895 Y94.146 E29.33019
G1 X116.157 Y94.368 E29.34161
G1 X116.451 Y94.547 E29.35306
G1 X116.768 Y94.68 E29.36449
G1 X117.1 Y94.765 E29.37589
G1 X117.443 Y94.799 E29.38735
G1 X117.788 Y94.783 E29.39884
G0 F6000 X117.842 Y95.219
G1 F2700 E24.39884
G0 F6000 X117.426 Y95.391
G0 X117.465 Y93.933
G0 X117.538 Y141.067
G0 X117.565 Y139.609
G0 X119.182 Y140.595
G0 X119.668 Y141.176
G0 X119.989 Y141.994
G0 X120.028 Y142.751
G0 X119.842 Y143.484
G0 X119.446 Y144.133
G0 X118.986 Y144.538
G0 X117.837 Y145.181
;TYPE:WALL-INNER
G1 F2700 E29.39884
G1 F1200 X118.231 Y145.101 E29.41221
G1 X118.611 Y144.961 E29.42568
G1 X118.965 Y144.769 E29.43908
G1 X119.288 Y144.526 E29.45252
G1 X119.57 Y144.236 E29.46597
G1 X119.805 Y143.908 E29.47939
G1 X119.991 Y143.546 E29.49293
G1 X120.118 Y143.163 E29.50635
G1 X120.188 Y142.768 E29.51969
G1 X120.198 Y142.366 E29.53307
G1 X120.147 Y141.96 E29.54668
G1 X119.994 Y141.46 E29.56407
G1 X119.805 Y141.092 E29.57783
G1 X119.57 Y140.764 E29.59125
G1 X119.288 Y140.474 E29.6047
G1 X118.965 Y140.231 E29.61815
G1 X118.611 Y140.039 E29.63154
G1 X118.231 Y139.899 E29.64501
G1 X117.84 Y139.82 E29.65828
G1 X117.562 Y139.8 E29.66755
G1 X117.163 Y139.819 E29.68083
G1 X116.769 Y139.899 E29.69421
G1 X116.389 Y140.039 E29.70767
G1 X116.035 Y140.231 E29.72107
G1 X115.711 Y140.475 E29.73456
G1 X115.429 Y140.765 E29.74801
G1 X115.194 Y141.092 E29.76141
G1 X115.01 Y141.453 E29.77488
G1 X114.882 Y141.837 E29.78835
G1 X114.812 Y142.232 E29.80169
G1 X114.802 Y142.635 E29.8151
G1 X114.853 Y143.036 E29.82854
G1 X114.962 Y143.424 E29.84195
G1 X115.129 Y143.794 E29.85545
G1 X115.347 Y144.131 E29.8688
G1 X115.615 Y144.433 E29.88223
G1 X115.922 Y144.693 E29.89561
G1 X116.269 Y144.904 E29.90911
G1 X116.64 Y145.06 E29.9225
G1 X117.03 Y145.16 E29.93589
G1 X117.432 Y145.2 E29.94933
G1 X117.837 Y145.181 E29.96281
G0 F6000 X117.788 Y144.783
;TYPE:WALL-OUTER
G1 F1200 X118.122 Y144.715 E29.97415
G1 X118.446 Y144.596 E29.98563
G1 X118.748 Y144.432 E29.99706
G1 X119.023 Y144.225 E30.00851
G1 X119.262 Y143.979 E30.01992
G1 X119.463 Y143.699 E30.03138
G1 X119.621 Y143.391 E30.04289
G1 X119.729 Y143.065 E30.05432
G1 X119.789 Y142.728 E30.0657
G1 X119.797 Y142.386 E30.07708
G1 X119.754 Y142.044 E30.08854
G1 X119.622 Y141.611 E30.1036
G1 X119.463 Y141.301 E30.11519
G1 X119.262 Y141.021 E30.12665
G1 X119.023 Y140.775 E30.13806
G1 X118.748 Y140.568 E30.14951
G1 X118.446 Y140.404 E30.16094
G1 X118.122 Y140.285 E30.17242
G1 X117.786 Y140.217 E30.18382
G1 X117.557 Y140.201 E30.19145
G1 X117.212 Y140.217 E30.20294
G1 X116.878 Y140.285 E30.21428
G1 X116.554 Y140.404 E30.22576
G1 X116.252 Y140.568 E30.23719
G1 X115.976 Y140.776 E30.24868
G1 X115.737 Y141.022 E30.26009
G1 X115.537 Y141.301 E30.27151
G1 X115.38 Y141.608 E30.28298
G1 X115.271 Y141.936 E30.29447
G1 X115.211 Y142.272 E30.30582
G1 X115.203 Y142.615 E30.31724
G1 X115.246 Y142.956 E30.32867
G1 X115.339 Y143.287 E30.3401
G1 X115.481 Y143.602 E30.3516
G1 X115.666 Y143.888 E30.36292
G1 X115.895 Y144.146 E30.3744
G1 X116.157 Y144.368 E30.38582
G1 X116.451 Y144.547 E30.39727
G1 X116.768 Y144.68 E30.4087
G1 X117.1 Y144.765 E30.4201
G1 X117.443 Y144.799 E30.43156
G1 X117.788 Y144.783 E30.44305
G0 F6000 X117.842 Y145.219
G1 F2700 E25.44305
G0 F6000 X119.414 Y144.669
G0 X118.454 Y143.57
G0 X119.414 Y153.165
G0 X119.414 Y151.69
G0 X136.252 Y151.9
;TYPE:WALL-INNER
G1 F2700 E30.44305
G1 F1200 X98.748 Y151.9 E31.69044
G1 X98.1 Y151.252 E31.72092
G1 X98.1 Y83.748 E33.96611
G1 X98.748 Y83.1 E33.99659
G1 X136.252 Y83.1 E35.24398
G1 X136.9 Y83.748 E35.27446
